; LightBurn 1.7.04
; Marlin device profile, absolute coords
; Bounds: X9.21 Y10.7 to X64.81 Y58
G21
G90
; Image @ 200 mm/sec, 100% power
M8
M106 S0 
G0 X31.006 Y10.699 F0
; Layer C00
G91
G1 X5 F12000
M106 S255
G1 X0.1
M106 S0 
G1 X0.3
M106 S255
G1 X0.1
M106 S0 
G1 X0.3
M106 S255
G1 X0.1
M106 S0 
G1 X0.4
M106 S255
G1 X0.1
M106 S0 
G1 X0.4
M106 S255
G1 X0.1
M106 S0 
G1 X1.2
M106 S255
G1 X0.1
M106 S0 
G1 X0.2
M106 S255
G1 X0.1
M106 S0 
G1 X5
G1 X1.9Y0.1
G1 X-5
M106 S255
G1 X-0.1
M106 S0 
G1 X-0.3
M106 S255
G1 X-0.1
M106 S0 
G1 X-0.2
M106 S255
G1 X-0.1
M106 S0 
G1 X-0.2
M106 S255
G1 X-0.1
M106 S0 
G1 X-0.2
M106 S255
G1 X-0.1
M106 S0 
G1 X-0.2
M106 S255
G1 X-0.1
M106 S0 
G1 X-0.9
M106 S255
G1 X-0.1
M106 S0 
G1 X-0.5
M106 S255
G1 X-0.1
M106 S0 
G1 X-2.3
M106 S255
G1 X-0.1
M106 S0 
G1 X-0.2
M106 S255
G1 X-0.1
M106 S0 
G1 X-0.3
M106 S255
G1 X-0.1
M106 S0 
G1 X-5
G1 X-2.4Y0.1
G1 X5
M106 S255
G1 X0.1
M106 S0 
G1 X0.2
M106 S255
G1 X0.1
M106 S0 
G1 X0.2
M106 S255
G1 X0.1
M106 S0 
G1 X0.3
M106 S255
G1 X0.1
M106 S0 
G1 X0.3
M106 S255
G1 X0.1
M106 S0 
G1 X0.2
M106 S255
G1 X0.1
M106 S0 
G1 X0.2
M106 S255
G1 X0.1
M106 S0 
G1 X2.3
M106 S255
G1 X0.1
M106 S0 
G1 X0.4
M106 S255
G1 X0.1
M106 S0 
G1 X0.8
M106 S255
G1 X0.1
M106 S0 
G1 X3.1
M106 S255
G1 X0.1
M106 S0 
G1 X0.2
M106 S255
G1 X0.1
M106 S0 
G1 X0.3
M106 S255
G1 X0.1
M106 S0 
G1 X0.3
M106 S255
G1 X0.1
M106 S0 
G1 X0.3
M106 S255
G1 X0.1
M106 S0 
G1 X0.3
M106 S255
G1 X0.1
M106 S0 
G1 X5
G1 X1.3Y0.1
G1 X-5
M106 S255
G1 X-0.1
M106 S0 
G1 X-0.3
M106 S255
G1 X-0.1
M106 S0 
G1 X-0.2
M106 S255
G1 X-0.1
M106 S0 
G1 X-0.2
M106 S255
G1 X-0.1
M106 S0 
G1 X-2.7
M106 S255
G1 X-0.1
M106 S0 
G1 X-1.5
M106 S255
G1 X-0.1
M106 S0 
G1 X-0.2
M106 S255
G1 X-0.1
M106 S0 
G1 X-0.2
M106 S255
G1 X-0.1
M106 S0 
G1 X-0.9
M106 S255
G1 X-0.1
M106 S0 
G1 X-1.1
M106 S255
G1 X-0.1
M106 S0 
G1 X-0.2
M106 S255
G1 X-0.1
M106 S0 
G1 X-0.2
M106 S255
G1 X-0.1
M106 S0 
G1 X-3.7
M106 S255
G1 X-0.1
M106 S0 
G1 X-5
G1 X-0.4Y0.1
G1 X5
M106 S255
G1 X0.1
M106 S0 
G1 X2
M106 S255
G1 X0.1
M106 S0 
G1 X0.8
M106 S255
G1 X0.1
M106 S0 
G1 X0.2
M106 S255
G1 X0.1
M106 S0 
G1 X0.2
M106 S255
G1 X0.1
M106 S0 
G1 X0.2
M106 S255
G1 X0.1
M106 S0 
G1 X1.1
M106 S255
G1 X0.1
M106 S0 
G1 X0.2
M106 S255
G1 X0.1
M106 S0 
G1 X0.8
M106 S255
G1 X0.1
M106 S0 
G1 X0.3
M106 S255
G1 X0.1
M106 S0 
G1 X1
M106 S255
G1 X0.1
M106 S0 
G1 X0.2
M106 S255
G1 X0.1
M106 S0 
G1 X0.2
M106 S255
G1 X0.1
M106 S0 
G1 X0.2
M106 S255
G1 X0.1
M106 S0 
G1 X0.1
M106 S255
G1 X0.1
M106 S0 
G1 X0.4
M106 S255
G1 X0.1
M106 S0 
G1 X0.7
M106 S255
G1 X0.1
M106 S0 
G1 X0.2
M106 S255
G1 X0.1
M106 S0 
G1 X0.2
M106 S255
G1 X0.1
M106 S0 
G1 X0.2
M106 S255
G1 X0.1
M106 S0 
G1 X0.2
M106 S255
G1 X0.1
M106 S0 
G1 X1.9
M106 S255
G1 X0.1
M106 S0 
G1 X5
G1 X0.6Y0.1
G1 X-5
M106 S255
G1 X-0.1
M106 S0 
G1 X-0.2
M106 S255
G1 X-0.1
M106 S0 
G1 X-0.8
M106 S255
G1 X-0.1
M106 S0 
G1 X-0.6
M106 S255
G1 X-0.1
M106 S0 
G1 X-0.3
M106 S255
G1 X-0.1
M106 S0 
G1 X-0.1
M106 S255
G1 X-0.1
M106 S0 
G1 X-1
M106 S255
G1 X-0.1
M106 S0 
G1 X-0.4
M106 S255
G1 X-0.1
M106 S0 
G1 X-0.2
M106 S255
G1 X-0.1
M106 S0 
G1 X-0.4
M106 S255
G1 X-0.1
M106 S0 
G1 X-1.7
M106 S255
G1 X-0.1
M106 S0 
G1 X-0.2
M106 S255
G1 X-0.1
M106 S0 
G1 X-0.4
M106 S255
G1 X-0.1
M106 S0 
G1 X-0.5
M106 S255
G1 X-0.1
M106 S0 
G1 X-0.2
M106 S255
G1 X-0.1
M106 S0 
G1 X-2.8
M106 S255
G1 X-0.1
M106 S0 
G1 X-0.2
M106 S255
G1 X-0.1
M106 S0 
G1 X-0.6
M106 S255
G1 X-0.1
M106 S0 
G1 X-0.2
M106 S255
G1 X-0.1
M106 S0 
G1 X-0.2
M106 S255
G1 X-0.1
M106 S0 
G1 X-0.3
M106 S255
G1 X-0.1
M106 S0 
G1 X-1
M106 S255
G1 X-0.1
M106 S0 
G1 X-5
G1 X-0.3Y0.1
G1 X5
M106 S255
G1 X0.1
M106 S0 
G1 X0.9
M106 S255
G1 X0.1
M106 S0 
G1 X1.5
M106 S255
G1 X0.1
M106 S0 
G1 X1.4
M106 S255
G1 X0.1
M106 S0 
G1 X0.5
M106 S255
G1 X0.1
M106 S0 
G1 X0.2
M106 S255
G1 X0.1
M106 S0 
G1 X0.2
M106 S255
G1 X0.1
M106 S0 
G1 X0.1
M106 S255
G1 X0.1
M106 S0 
G1 X0.3
M106 S255
G1 X0.1
M106 S0 
G1 X0.9
M106 S255
G1 X0.1
M106 S0 
G1 X0.5
M106 S255
G1 X0.1
M106 S0 
G1 X0.6
M106 S255
G1 X0.1
M106 S0 
G1 X0.2
M106 S255
G1 X0.1
M106 S0 
G1 X0.2
M106 S255
G1 X0.1
M106 S0 
G1 X0.2
M106 S255
G1 X0.1
M106 S0 
G1 X0.2
M106 S255
G1 X0.1
M106 S0 
G1 X0.7
M106 S255
G1 X0.1
M106 S0 
G1 X0.2
M106 S255
G1 X0.1
M106 S0 
G1 X0.2
M106 S255
G1 X0.1
M106 S0 
G1 X0.5
M106 S255
G1 X0.1
M106 S0 
G1 X0.2
M106 S255
G1 X0.1
M106 S0 
G1 X0.2
M106 S255
G1 X0.1
M106 S0 
G1 X0.5
M106 S255
G1 X0.1
M106 S0 
G1 X0.3
M106 S255
G1 X0.1
M106 S0 
G1 X0.2
M106 S255
G1 X0.1
M106 S0 
G1 X0.4
M106 S255
G1 X0.1
M106 S0 
G1 X1.1
M106 S255
G1 X0.1
M106 S0 
G1 X5
G1 X0.6Y0.1
G1 X-5
M106 S255
G1 X-0.1
M106 S0 
G1 X-0.2
M106 S255
G1 X-0.1
M106 S0 
G1 X-1.2
M106 S255
G1 X-0.1
M106 S0 
G1 X-2.3
M106 S255
G1 X-0.1
M106 S0 
G1 X-0.2
M106 S255
G1 X-0.1
M106 S0 
G1 X-0.2
M106 S255
G1 X-0.1
M106 S0 
G1 X-0.2
M106 S255
G1 X-0.1
M106 S0 
G1 X-0.6
M106 S255
G1 X-0.1
M106 S0 
G1 X-0.1
M106 S255
G1 X-0.1
M106 S0 
G1 X-0.2
M106 S255
G1 X-0.1
M106 S0 
G1 X-0.4
M106 S255
G1 X-0.1
M106 S0 
G1 X-1.1
M106 S255
G1 X-0.1
M106 S0 
G1 X-0.4
M106 S255
G1 X-0.1
M106 S0 
G1 X-0.5
M106 S255
G1 X-0.1
M106 S0 
G1 X-0.2
M106 S255
G1 X-0.1
M106 S0 
G1 X-0.2
M106 S255
G1 X-0.1
M106 S0 
G1 X-0.4
M106 S255
G1 X-0.1
M106 S0 
G1 X-0.9
M106 S255
G1 X-0.1
M106 S0 
G1 X-0.2
M106 S255
G1 X-0.1
M106 S0 
G1 X-0.4
M106 S255
G1 X-0.1
M106 S0 
G1 X-0.2
M106 S255
G1 X-0.1
M106 S0 
G1 X-0.5
M106 S255
G1 X-0.1
M106 S0 
G1 X-0.5
M106 S255
G1 X-0.1
M106 S0 
G1 X-0.5
M106 S255
G1 X-0.1
M106 S0 
G1 X-0.3
M106 S255
G1 X-0.1
M106 S0 
G1 X-0.4
M106 S255
G1 X-0.1
M106 S0 
G1 X-0.2
M106 S255
G1 X-0.1
M106 S0 
G1 X-0.8
M106 S255
G1 X-0.1
M106 S0 
G1 X-5
G1 X-0.4Y0.1
G1 X5
M106 S255
G1 X0.1
M106 S0 
G1 X2.6
M106 S255
G1 X0.1
M106 S0 
G1 X0.2
M106 S255
G1 X0.1
M106 S0 
G1 X0.4
M106 S255
G1 X0.1
M106 S0 
G1 X0.3
M106 S255
G1 X0.1
M106 S0 
G1 X0.2
M106 S255
G1 X0.1
M106 S0 
G1 X0.4
M106 S255
G1 X0.1
M106 S0 
G1 X0.9
M106 S255
G1 X0.1
M106 S0 
G1 X0.2
M106 S255
G1 X0.1
M106 S0 
G1 X0.5
M106 S255
G1 X0.1
M106 S0 
G1 X1.1
M106 S255
G1 X0.1
M106 S0 
G1 X0.5
M106 S255
G1 X0.1
M106 S0 
G1 X0.3
M106 S255
G1 X0.1
M106 S0 
G1 X0.2
M106 S255
G1 X0.1
M106 S0 
G1 X0.2
M106 S255
G1 X0.1
M106 S0 
G1 X0.2
M106 S255
G1 X0.1
M106 S0 
G1 X0.3
M106 S255
G1 X0.1
M106 S0 
G1 X0.3
M106 S255
G1 X0.1
M106 S0 
G1 X0.3
M106 S255
G1 X0.1
M106 S0 
G1 X0.1
M106 S255
G1 X0.1
M106 S0 
G1 X0.1
M106 S255
G1 X0.1
M106 S0 
G1 X0.2
M106 S255
G1 X0.1
M106 S0 
G1 X0.2
M106 S255
G1 X0.1
M106 S0 
G1 X0.2
M106 S255
G1 X0.1
M106 S0 
G1 X0.3
M106 S255
G1 X0.1
M106 S0 
G1 X0.2
M106 S255
G1 X0.1
M106 S0 
G1 X0.1
M106 S255
G1 X0.1
M106 S0 
G1 X0.1
M106 S255
G1 X0.1
M106 S0 
G1 X0.1
M106 S255
G1 X0.1
M106 S0 
G1 X0.1
M106 S255
G1 X0.1
M106 S0 
G1 X0.2
M106 S255
G1 X0.1
M106 S0 
G1 X0.2
M106 S255
G1 X0.1
M106 S0 
G1 X0.6
M106 S255
G1 X0.1
M106 S0 
G1 X0.2
M106 S255
G1 X0.1
M106 S0 
G1 X0.2
M106 S255
G1 X0.1
M106 S0 
G1 X1.1
M106 S255
G1 X0.1
M106 S0 
G1 X5
G1 X0.4Y0.1
G1 X-5
M106 S255
G1 X-0.1
M106 S0 
G1 X-1.3
M106 S255
G1 X-0.1
M106 S0 
G1 X-0.6
M106 S255
G1 X-0.1
M106 S0 
G1 X-0.4
M106 S255
G1 X-0.1
M106 S0 
G1 X-0.1
M106 S255
G1 X-0.1
M106 S0 
G1 X-0.2
M106 S255
G1 X-0.1
M106 S0 
G1 X-0.2
M106 S255
G1 X-0.1
M106 S0 
G1 X-0.3
M106 S255
G1 X-0.1
M106 S0 
G1 X-0.3
M106 S255
G1 X-0.1
M106 S0 
G1 X-0.2
M106 S255
G1 X-0.1
M106 S0 
G1 X-0.1
M106 S255
G1 X-0.1
M106 S0 
G1 X-0.1
M106 S255
G1 X-0.1
M106 S0 
G1 X-0.2
M106 S255
G1 X-0.1
M106 S0 
G1 X-0.1
M106 S255
G1 X-0.1
M106 S0 
G1 X-0.1
M106 S255
G1 X-0.1
M106 S0 
G1 X-0.2
M106 S255
G1 X-0.1
M106 S0 
G1 X-0.2
M106 S255
G1 X-0.1
M106 S0 
G1 X-1.3
M106 S255
G1 X-0.1
M106 S0 
G1 X-0.2
M106 S255
G1 X-0.1
M106 S0 
G1 X-0.2
M106 S255
G1 X-0.1
M106 S0 
G1 X-0.2
M106 S255
G1 X-0.1
M106 S0 
G1 X-0.4
M106 S255
G1 X-0.1
M106 S0 
G1 X-0.2
M106 S255
G1 X-0.1
M106 S0 
G1 X-0.2
M106 S255
G1 X-0.1
M106 S0 
G1 X-0.2
M106 S255
G1 X-0.1
M106 S0 
G1 X-0.1
M106 S255
G1 X-0.1
M106 S0 
G1 X-0.2
M106 S255
G1 X-0.1
M106 S0 
G1 X-0.2
M106 S255
G1 X-0.1
M106 S0 
G1 X-0.2
M106 S255
G1 X-0.1
M106 S0 
G1 X-0.2
M106 S255
G1 X-0.1
M106 S0 
G1 X-0.3
M106 S255
G1 X-0.1
M106 S0 
G1 X-0.2
M106 S255
G1 X-0.1
M106 S0 
G1 X-0.2
M106 S255
G1 X-0.1
M106 S0 
G1 X-0.3
M106 S255
G1 X-0.1
M106 S0 
G1 X-0.4
M106 S255
G1 X-0.1
M106 S0 
G1 X-0.6
M106 S255
G1 X-0.1
M106 S0 
G1 X-0.9
M106 S255
G1 X-0.1
M106 S0 
G1 X-0.2
M106 S255
G1 X-0.1
M106 S0 
G1 X-0.2
M106 S255
G1 X-0.1
M106 S0 
G1 X-0.4
M106 S255
G1 X-0.1
M106 S0 
G1 X-0.2
M106 S255
G1 X-0.1
M106 S0 
G1 X-0.2
M106 S255
G1 X-0.1
M106 S0 
G1 X-1
M106 S255
G1 X-0.1
M106 S0 
G1 X-0.3
M106 S255
G1 X-0.1
M106 S0 
G1 X-5
G1 X-0.5Y0.1
G1 X5
M106 S255
G1 X0.1
M106 S0 
G1 X1.1
M106 S255
G1 X0.1
M106 S0 
G1 X0.3
M106 S255
G1 X0.1
M106 S0 
G1 X1
M106 S255
G1 X0.1
M106 S0 
G1 X0.2
M106 S255
G1 X0.1
M106 S0 
G1 X0.7
M106 S255
G1 X0.1
M106 S0 
G1 X0.2
M106 S255
G1 X0.1
M106 S0 
G1 X0.2
M106 S255
G1 X0.1
M106 S0 
G1 X0.5
M106 S255
G1 X0.1
M106 S0 
G1 X0.6
M106 S255
G1 X0.1
M106 S0 
G1 X0.4
M106 S255
G1 X0.1
M106 S0 
G1 X0.2
M106 S255
G1 X0.1
M106 S0 
G1 X0.2
M106 S255
G1 X0.1
M106 S0 
G1 X0.8
M106 S255
G1 X0.1
M106 S0 
G1 X0.5
M106 S255
G1 X0.1
M106 S0 
G1 X0.4
M106 S255
G1 X0.1
M106 S0 
G1 X0.5
M106 S255
G1 X0.1
M106 S0 
G1 X0.2
M106 S255
G1 X0.1
M106 S0 
G1 X0.2
M106 S255
G1 X0.1
M106 S0 
G1 X0.7
M106 S255
G1 X0.1
M106 S0 
G1 X0.2
M106 S255
G1 X0.1
M106 S0 
G1 X0.1
M106 S255
G1 X0.2
M106 S0 
G1 X0.1
M106 S255
G1 X0.3
M106 S0 
G1 X0.1
M106 S255
G1 X0.3
M106 S0 
G1 X0.2
M106 S255
G1 X0.1
M106 S0 
G1 X0.2
M106 S255
G1 X0.2
M106 S0 
G1 X0.1
M106 S255
G1 X0.1
M106 S0 
G1 X0.2
M106 S255
G1 X0.1
M106 S0 
G1 X0.1
M106 S255
G1 X0.1
M106 S0 
G1 X0.3
M106 S255
G1 X0.1
M106 S0 
G1 X0.2
M106 S255
G1 X0.1
M106 S0 
G1 X0.2
M106 S255
G1 X0.1
M106 S0 
G1 X0.4
M106 S255
G1 X0.1
M106 S0 
G1 X0.9
M106 S255
G1 X0.1
M106 S0 
G1 X0.6
M106 S255
G1 X0.1
M106 S0 
G1 X0.5
M106 S255
G1 X0.1
M106 S0 
G1 X0.2
M106 S255
G1 X0.1
M106 S0 
G1 X0.2
M106 S255
G1 X0.1
M106 S0 
G1 X5
G1 X0.9Y0.1
G1 X-5
M106 S255
G1 X-0.1
M106 S0 
G1 X-0.5
M106 S255
G1 X-0.1
M106 S0 
G1 X-1.2
M106 S255
G1 X-0.1
M106 S0 
G1 X-0.2
M106 S255
G1 X-0.1
M106 S0 
G1 X-0.2
M106 S255
G1 X-0.1
M106 S0 
G1 X-0.1
M106 S255
G1 X-0.1
M106 S0 
G1 X-0.2
M106 S255
G1 X-0.1
M106 S0 
G1 X-0.2
M106 S255
G1 X-0.1
M106 S0 
G1 X-0.1
M106 S255
G1 X-0.1
M106 S0 
G1 X-0.1
M106 S255
G1 X-0.1
M106 S0 
G1 X-0.3
M106 S255
G1 X-0.1
M106 S0 
G1 X-0.2
M106 S255
G1 X-0.1
M106 S0 
G1 X-0.2
M106 S255
G1 X-0.1
M106 S0 
G1 X-0.2
M106 S255
G1 X-0.1
M106 S0 
G1 X-0.1
M106 S255
G1 X-0.1
M106 S0 
G1 X-0.1
M106 S255
G1 X-0.1
M106 S0 
G1 X-0.1
M106 S255
G1 X-0.2
M106 S0 
G1 X-0.1
M106 S255
G1 X-0.1
M106 S0 
G1 X-0.2
M106 S255
G1 X-0.2
M106 S0 
G1 X-0.1
M106 S255
G1 X-0.4
M106 S0 
G1 X-0.1
M106 S255
G1 X-0.3
M106 S0 
G1 X-0.1
M106 S255
G1 X-0.1
M106 S0 
G1 X-0.1
M106 S255
G1 X-0.1
M106 S0 
G1 X-0.2
M106 S255
G1 X-0.1
M106 S0 
G1 X-0.2
M106 S255
G1 X-0.1
M106 S0 
G1 X-0.1
M106 S255
G1 X-0.1
M106 S0 
G1 X-0.1
M106 S255
G1 X-0.1
M106 S0 
G1 X-0.3
M106 S255
G1 X-0.1
M106 S0 
G1 X-0.7
M106 S255
G1 X-0.1
M106 S0 
G1 X-0.1
M106 S255
G1 X-0.1
M106 S0 
G1 X-0.4
M106 S255
G1 X-0.1
M106 S0 
G1 X-0.4
M106 S255
G1 X-0.1
M106 S0 
G1 X-0.4
M106 S255
G1 X-0.1
M106 S0 
G1 X-0.1
M106 S255
G1 X-0.1
M106 S0 
G1 X-0.1
M106 S255
G1 X-0.1
M106 S0 
G1 X-0.8
M106 S255
G1 X-0.1
M106 S0 
G1 X-0.2
M106 S255
G1 X-0.1
M106 S0 
G1 X-0.3
M106 S255
G1 X-0.1
M106 S0 
G1 X-0.1
M106 S255
G1 X-0.1
M106 S0 
G1 X-0.2
M106 S255
G1 X-0.1
M106 S0 
G1 X-0.2
M106 S255
G1 X-0.1
M106 S0 
G1 X-0.2
M106 S255
G1 X-0.1
M106 S0 
G1 X-0.2
M106 S255
G1 X-0.1
M106 S0 
G1 X-0.3
M106 S255
G1 X-0.1
M106 S0 
G1 X-0.2
M106 S255
G1 X-0.1
M106 S0 
G1 X-0.7
M106 S255
G1 X-0.1
M106 S0 
G1 X-0.2
M106 S255
G1 X-0.1
M106 S0 
G1 X-0.3
M106 S255
G1 X-0.1
M106 S0 
G1 X-2.1
M106 S255
G1 X-0.1
M106 S0 
G1 X-5
G1 X-0.5Y0.1
G1 X5
M106 S255
G1 X0.1
M106 S0 
G1 X1.2
M106 S255
G1 X0.1
M106 S0 
G1 X0.2
M106 S255
G1 X0.1
M106 S0 
G1 X0.2
M106 S255
G1 X0.1
M106 S0 
G1 X0.3
M106 S255
G1 X0.1
M106 S0 
G1 X0.4
M106 S255
G1 X0.1
M106 S0 
G1 X0.3
M106 S255
G1 X0.1
M106 S0 
G1 X0.2
M106 S255
G1 X0.1
M106 S0 
G1 X0.1
M106 S255
G1 X0.2
M106 S0 
G1 X0.2
M106 S255
G1 X0.1
M106 S0 
G1 X0.2
M106 S255
G1 X0.1
M106 S0 
G1 X1.1
M106 S255
G1 X0.1
M106 S0 
G1 X0.3
M106 S255
G1 X0.1
M106 S0 
G1 X0.3
M106 S255
G1 X0.1
M106 S0 
G1 X0.3
M106 S255
G1 X0.1
M106 S0 
G1 X0.3
M106 S255
G1 X0.1
M106 S0 
G1 X0.2
M106 S255
G1 X0.1
M106 S0 
G1 X0.2
M106 S255
G1 X0.1
M106 S0 
G1 X0.3
M106 S255
G1 X0.1
M106 S0 
G1 X0.2
M106 S255
G1 X0.1
M106 S0 
G1 X0.3
M106 S255
G1 X0.1
M106 S0 
G1 X0.1
M106 S255
G1 X0.1
M106 S0 
G1 X0.2
M106 S255
G1 X0.1
M106 S0 
G1 X0.1
M106 S255
G1 X0.1
M106 S0 
G1 X0.4
M106 S255
G1 X0.1
M106 S0 
G1 X0.1
M106 S255
G1 X0.1
M106 S0 
G1 X0.1
M106 S255
G1 X0.1
M106 S0 
G1 X0.3
M106 S255
G1 X0.1
M106 S0 
G1 X0.1
M106 S255
G1 X0.1
M106 S0 
G1 X0.1
M106 S255
G1 X0.1
M106 S0 
G1 X0.1
M106 S255
G1 X0.1
M106 S0 
G1 X0.1
M106 S255
G1 X0.2
M106 S0 
G1 X0.1
M106 S255
G1 X0.2
M106 S0 
G1 X0.1
M106 S255
G1 X0.2
M106 S0 
G1 X0.1
M106 S255
G1 X0.1
M106 S0 
G1 X0.1
M106 S255
G1 X0.2
M106 S0 
G1 X0.1
M106 S255
G1 X0.1
M106 S0 
G1 X0.1
M106 S255
G1 X0.2
M106 S0 
G1 X0.1
M106 S255
G1 X0.1
M106 S0 
G1 X0.1
M106 S255
G1 X0.1
M106 S0 
G1 X0.1
M106 S255
G1 X0.1
M106 S0 
G1 X0.2
M106 S255
G1 X0.1
M106 S0 
G1 X0.1
M106 S255
G1 X0.1
M106 S0 
G1 X0.1
M106 S255
G1 X0.1
M106 S0 
G1 X0.1
M106 S255
G1 X0.1
M106 S0 
G1 X0.1
M106 S255
G1 X0.1
M106 S0 
G1 X0.1
M106 S255
G1 X0.1
M106 S0 
G1 X0.2
M106 S255
G1 X0.1
M106 S0 
G1 X0.1
M106 S255
G1 X0.1
M106 S0 
G1 X0.1
M106 S255
G1 X0.1
M106 S0 
G1 X0.3
M106 S255
G1 X0.1
M106 S0 
G1 X0.1
M106 S255
G1 X0.1
M106 S0 
G1 X0.2
M106 S255
G1 X0.1
M106 S0 
G1 X0.4
M106 S255
G1 X0.1
M106 S0 
G1 X0.5
M106 S255
G1 X0.1
M106 S0 
G1 X0.2
M106 S255
G1 X0.1
M106 S0 
G1 X0.3
M106 S255
G1 X0.1
M106 S0 
G1 X0.7
M106 S255
G1 X0.1
M106 S0 
G1 X0.5
M106 S255
G1 X0.1
M106 S0 
G1 X5
G1 X-1.2Y0.1
G1 X-5
M106 S255
G1 X-0.1
M106 S0 
G1 X-0.4
M106 S255
G1 X-0.1
M106 S0 
G1 X-0.6
M106 S255
G1 X-0.1
M106 S0 
G1 X-0.5
M106 S255
G1 X-0.1
M106 S0 
G1 X-0.3
M106 S255
G1 X-0.1
M106 S0 
G1 X-0.4
M106 S255
G1 X-0.1
M106 S0 
G1 X-0.2
M106 S255
G1 X-0.1
M106 S0 
G1 X-0.1
M106 S255
G1 X-0.1
M106 S0 
G1 X-0.2
M106 S255
G1 X-0.1
M106 S0 
G1 X-0.1
M106 S255
G1 X-0.1
M106 S0 
G1 X-0.1
M106 S255
G1 X-0.1
M106 S0 
G1 X-0.2
M106 S255
G1 X-0.1
M106 S0 
G1 X-0.1
M106 S255
G1 X-0.1
M106 S0 
G1 X-0.1
M106 S255
G1 X-0.2
M106 S0 
G1 X-0.1
M106 S255
G1 X-0.2
M106 S0 
G1 X-0.1
M106 S255
G1 X-0.3
M106 S0 
G1 X-0.1
M106 S255
G1 X-0.2
M106 S0 
G1 X-0.1
M106 S255
G1 X-1.2
M106 S0 
G1 X-0.1
M106 S255
G1 X-0.3
M106 S0 
G1 X-0.1
M106 S255
G1 X-0.2
M106 S0 
G1 X-0.1
M106 S255
G1 X-0.1
M106 S0 
G1 X-0.2
M106 S255
G1 X-0.2
M106 S0 
G1 X-0.1
M106 S255
G1 X-0.1
M106 S0 
G1 X-0.3
M106 S255
G1 X-0.1
M106 S0 
G1 X-0.2
M106 S255
G1 X-0.1
M106 S0 
G1 X-0.4
M106 S255
G1 X-0.1
M106 S0 
G1 X-0.2
M106 S255
G1 X-0.1
M106 S0 
G1 X-0.2
M106 S255
G1 X-0.1
M106 S0 
G1 X-0.1
M106 S255
G1 X-0.1
M106 S0 
G1 X-0.3
M106 S255
G1 X-0.1
M106 S0 
G1 X-0.3
M106 S255
G1 X-0.1
M106 S0 
G1 X-0.2
M106 S255
G1 X-0.1
M106 S0 
G1 X-0.3
M106 S255
G1 X-0.1
M106 S0 
G1 X-0.3
M106 S255
G1 X-0.1
M106 S0 
G1 X-0.3
M106 S255
G1 X-0.1
M106 S0 
G1 X-0.3
M106 S255
G1 X-0.1
M106 S0 
G1 X-0.2
M106 S255
G1 X-0.1
M106 S0 
G1 X-0.1
M106 S255
G1 X-0.1
M106 S0 
G1 X-0.1
M106 S255
G1 X-0.1
M106 S0 
G1 X-0.1
M106 S255
G1 X-0.1
M106 S0 
G1 X-0.1
M106 S255
G1 X-0.1
M106 S0 
G1 X-0.2
M106 S255
G1 X-0.1
M106 S0 
G1 X-0.2
M106 S255
G1 X-0.3
M106 S0 
G1 X-0.1
M106 S255
G1 X-0.5
M106 S0 
G1 X-0.1
M106 S255
G1 X-0.2
M106 S0 
G1 X-0.4
M106 S255
G1 X-0.1
M106 S0 
G1 X-0.2
M106 S255
G1 X-0.1
M106 S0 
G1 X-2.3
M106 S255
G1 X-0.1
M106 S0 
G1 X-5
G1 X-1.4Y0.1
G1 X5
M106 S255
G1 X0.1
M106 S0 
G1 X0.9
M106 S255
G1 X0.1
M106 S0 
G1 X1
M106 S255
G1 X0.1
M106 S0 
G1 X0.4
M106 S255
G1 X0.1
M106 S0 
G1 X0.2
M106 S255
G1 X0.1
M106 S0 
G1 X0.2
M106 S255
G1 X0.1
M106 S0 
G1 X0.2
M106 S255
G1 X0.1
M106 S0 
G1 X0.6
M106 S255
G1 X0.2
M106 S0 
G1 X0.1
M106 S255
G1 X0.1
M106 S0 
G1 X0.2
M106 S255
G1 X0.2
M106 S0 
G1 X0.1
M106 S255
G1 X0.6
M106 S0 
G1 X0.1
M106 S255
G1 X0.2
M106 S0 
G1 X0.1
M106 S255
G1 X0.1
M106 S0 
G1 X0.2
M106 S255
G1 X0.1
M106 S0 
G1 X0.1
M106 S255
G1 X0.1
M106 S0 
G1 X0.1
M106 S255
G1 X0.1
M106 S0 
G1 X0.1
M106 S255
G1 X0.1
M106 S0 
G1 X0.2
M106 S255
G1 X0.1
M106 S0 
G1 X0.1
M106 S255
G1 X0.1
M106 S0 
G1 X0.1
M106 S255
G1 X0.1
M106 S0 
G1 X0.2
M106 S255
G1 X0.1
M106 S0 
G1 X0.2
M106 S255
G1 X0.1
M106 S0 
G1 X0.2
M106 S255
G1 X0.1
M106 S0 
G1 X0.1
M106 S255
G1 X0.1
M106 S0 
G1 X0.2
M106 S255
G1 X0.1
M106 S0 
G1 X0.2
M106 S255
G1 X0.1
M106 S0 
G1 X0.2
M106 S255
G1 X0.1
M106 S0 
G1 X0.2
M106 S255
G1 X0.1
M106 S0 
G1 X0.3
M106 S255
G1 X0.1
M106 S0 
G1 X0.2
M106 S255
G1 X0.1
M106 S0 
G1 X0.2
M106 S255
G1 X0.1
M106 S0 
G1 X0.1
M106 S255
G1 X0.1
M106 S0 
G1 X0.2
M106 S255
G1 X0.1
M106 S0 
G1 X0.2
M106 S255
G1 X0.1
M106 S0 
G1 X0.1
M106 S255
G1 X0.1
M106 S0 
G1 X0.2
M106 S255
G1 X0.1
M106 S0 
G1 X0.1
M106 S255
G1 X0.4
M106 S0 
G1 X0.1
M106 S255
G1 X0.8
M106 S0 
G1 X0.1
M106 S255
G1 X0.2
M106 S0 
G1 X0.1
M106 S255
G1 X0.3
M106 S0 
G1 X0.1
M106 S255
G1 X0.5
M106 S0 
G1 X0.1
M106 S255
G1 X0.1
M106 S0 
G1 X0.1
M106 S255
G1 X0.2
M106 S0 
G1 X0.1
M106 S255
G1 X0.2
M106 S0 
G1 X0.1
M106 S255
G1 X0.2
M106 S0 
G1 X0.1
M106 S255
G1 X0.1
M106 S0 
G1 X0.1
M106 S255
G1 X0.2
M106 S0 
G1 X0.1
M106 S255
G1 X0.1
M106 S0 
G1 X0.2
M106 S255
G1 X0.2
M106 S0 
G1 X0.2
M106 S255
G1 X0.1
M106 S0 
G1 X0.2
M106 S255
G1 X0.1
M106 S0 
G1 X0.1
M106 S255
G1 X0.2
M106 S0 
G1 X0.2
M106 S255
G1 X0.1
M106 S0 
G1 X0.2
M106 S255
G1 X0.1
M106 S0 
G1 X0.1
M106 S255
G1 X0.1
M106 S0 
G1 X0.1
M106 S255
G1 X0.1
M106 S0 
G1 X0.2
M106 S255
G1 X0.1
M106 S0 
G1 X0.2
M106 S255
G1 X0.1
M106 S0 
G1 X0.5
M106 S255
G1 X0.1
M106 S0 
G1 X0.4
M106 S255
G1 X0.1
M106 S0 
G1 X0.2
M106 S255
G1 X0.1
M106 S0 
G1 X0.3
M106 S255
G1 X0.1
M106 S0 
G1 X0.5
M106 S255
G1 X0.1
M106 S0 
G1 X5
G1 X-0.3Y0.1
G1 X-5
M106 S255
G1 X-0.1
M106 S0 
G1 X-1.2
M106 S255
G1 X-0.1
M106 S0 
G1 X-0.4
M106 S255
G1 X-0.1
M106 S0 
G1 X-0.1
M106 S255
G1 X-0.1
M106 S0 
G1 X-0.1
M106 S255
G1 X-0.1
M106 S0 
G1 X-0.2
M106 S255
G1 X-0.1
M106 S0 
G1 X-0.2
M106 S255
G1 X-0.1
M106 S0 
G1 X-0.4
M106 S255
G1 X-0.1
M106 S0 
G1 X-0.2
M106 S255
G1 X-0.1
M106 S0 
G1 X-0.1
M106 S255
G1 X-0.1
M106 S0 
G1 X-0.2
M106 S255
G1 X-0.2
M106 S0 
G1 X-0.1
M106 S255
G1 X-0.1
M106 S0 
G1 X-0.1
M106 S255
G1 X-0.1
M106 S0 
G1 X-0.2
M106 S255
G1 X-0.1
M106 S0 
G1 X-0.1
M106 S255
G1 X-0.1
M106 S0 
G1 X-0.1
M106 S255
G1 X-0.2
M106 S0 
G1 X-0.1
M106 S255
G1 X-0.2
M106 S0 
G1 X-0.1
M106 S255
G1 X-0.2
M106 S0 
G1 X-0.1
M106 S255
G1 X-0.2
M106 S0 
G1 X-0.1
M106 S255
G1 X-0.3
M106 S0 
G1 X-0.1
M106 S255
G1 X-0.2
M106 S0 
G1 X-0.1
M106 S255
G1 X-0.4
M106 S0 
G1 X-0.1
M106 S255
G1 X-0.6
M106 S0 
G1 X-0.1
M106 S255
G1 X-0.2
M106 S0 
G1 X-0.1
M106 S255
G1 X-0.5
M106 S0 
G1 X-0.1
M106 S255
G1 X-1
M106 S0 
G1 X-0.1
M106 S255
G1 X-0.2
M106 S0 
G1 X-0.1
M106 S255
G1 X-0.1
M106 S0 
G1 X-0.2
M106 S255
G1 X-0.1
M106 S0 
G1 X-0.2
M106 S255
G1 X-0.1
M106 S0 
G1 X-0.2
M106 S255
G1 X-0.1
M106 S0 
G1 X-0.2
M106 S255
G1 X-0.1
M106 S0 
G1 X-0.2
M106 S255
G1 X-0.1
M106 S0 
G1 X-0.2
M106 S255
G1 X-0.1
M106 S0 
G1 X-0.2
M106 S255
G1 X-0.1
M106 S0 
G1 X-0.2
M106 S255
G1 X-0.1
M106 S0 
G1 X-0.2
M106 S255
G1 X-0.1
M106 S0 
G1 X-0.2
M106 S255
G1 X-0.1
M106 S0 
G1 X-0.1
M106 S255
G1 X-0.1
M106 S0 
G1 X-0.2
M106 S255
G1 X-0.1
M106 S0 
G1 X-0.3
M106 S255
G1 X-0.1
M106 S0 
G1 X-0.1
M106 S255
G1 X-0.1
M106 S0 
G1 X-0.4
M106 S255
G1 X-0.1
M106 S0 
G1 X-0.1
M106 S255
G1 X-1.4
M106 S0 
G1 X-0.1
M106 S255
G1 X-0.6
M106 S0 
G1 X-0.1
M106 S255
G1 X-0.1
M106 S0 
G1 X-0.1
M106 S255
G1 X-0.2
M106 S0 
G1 X-0.1
M106 S255
G1 X-0.1
M106 S0 
G1 X-0.2
M106 S255
G1 X-0.1
M106 S0 
G1 X-0.2
M106 S255
G1 X-0.1
M106 S0 
G1 X-0.4
M106 S255
G1 X-0.1
M106 S0 
G1 X-2
M106 S255
G1 X-0.1
M106 S0 
G1 X-1
M106 S255
G1 X-0.1
M106 S0 
G1 X-5
G1 X-0.7Y0.1
G1 X5
M106 S255
G1 X0.1
M106 S0 
G1 X0.3
M106 S255
G1 X0.1
M106 S0 
G1 X1.6
M106 S255
G1 X0.1
M106 S0 
G1 X1
M106 S255
G1 X0.1
M106 S0 
G1 X0.3
M106 S255
G1 X0.1
M106 S0 
G1 X0.5
M106 S255
G1 X0.1
M106 S0 
G1 X0.5
M106 S255
G1 X0.1
M106 S0 
G1 X0.2
M106 S255
G1 X0.1
M106 S0 
G1 X0.2
M106 S255
G1 X0.2
M106 S0 
G1 X0.1
M106 S255
G1 X0.2
M106 S0 
G1 X0.1
M106 S255
G1 X0.6
M106 S0 
G1 X0.1
M106 S255
G1 X0.2
M106 S0 
G1 X0.1
M106 S255
G1 X0.9
M106 S0 
G1 X0.1
M106 S255
G1 X0.2
M106 S0 
G1 X0.1
M106 S255
G1 X0.1
M106 S0 
G1 X0.1
M106 S255
G1 X0.1
M106 S0 
G1 X0.1
M106 S255
G1 X0.2
M106 S0 
G1 X0.2
M106 S255
G1 X0.1
M106 S0 
G1 X0.2
M106 S255
G1 X0.1
M106 S0 
G1 X0.1
M106 S255
G1 X0.1
M106 S0 
G1 X0.2
M106 S255
G1 X0.1
M106 S0 
G1 X0.2
M106 S255
G1 X0.1
M106 S0 
G1 X0.2
M106 S255
G1 X0.1
M106 S0 
G1 X0.2
M106 S255
G1 X0.1
M106 S0 
G1 X0.2
M106 S255
G1 X0.1
M106 S0 
G1 X0.2
M106 S255
G1 X0.1
M106 S0 
G1 X0.1
M106 S255
G1 X0.1
M106 S0 
G1 X0.1
M106 S255
G1 X0.1
M106 S0 
G1 X0.1
M106 S255
G1 X0.1
M106 S0 
G1 X0.2
M106 S255
G1 X0.1
M106 S0 
G1 X0.2
M106 S255
G1 X0.1
M106 S0 
G1 X0.1
M106 S255
G1 X0.3
M106 S0 
G1 X0.1
M106 S255
G1 X0.2
M106 S0 
G1 X0.1
M106 S255
G1 X0.9
M106 S0 
G1 X0.1
M106 S255
G1 X0.5
M106 S0 
G1 X0.1
M106 S255
G1 X0.2
M106 S0 
G1 X0.1
M106 S255
G1 X0.4
M106 S0 
G1 X0.1
M106 S255
G1 X1
M106 S0 
G1 X0.1
M106 S255
G1 X0.2
M106 S0 
G1 X0.1
M106 S255
G1 X0.1
M106 S0 
G1 X0.1
M106 S255
G1 X0.2
M106 S0 
G1 X0.1
M106 S255
G1 X0.1
M106 S0 
G1 X0.1
M106 S255
G1 X0.1
M106 S0 
G1 X0.1
M106 S255
G1 X0.3
M106 S0 
G1 X0.1
M106 S255
G1 X0.1
M106 S0 
G1 X0.1
M106 S255
G1 X0.1
M106 S0 
G1 X0.2
M106 S255
G1 X0.1
M106 S0 
G1 X0.1
M106 S255
G1 X0.1
M106 S0 
G1 X0.2
M106 S255
G1 X0.1
M106 S0 
G1 X0.1
M106 S255
G1 X0.1
M106 S0 
G1 X0.1
M106 S255
G1 X0.1
M106 S0 
G1 X0.1
M106 S255
G1 X0.1
M106 S0 
G1 X0.2
M106 S255
G1 X0.1
M106 S0 
G1 X0.3
M106 S255
G1 X0.1
M106 S0 
G1 X0.5
M106 S255
G1 X0.1
M106 S0 
G1 X0.2
M106 S255
G1 X0.1
M106 S0 
G1 X0.2
M106 S255
G1 X0.1
M106 S0 
G1 X0.2
M106 S255
G1 X0.1
M106 S0 
G1 X0.2
M106 S255
G1 X0.1
M106 S0 
G1 X1
M106 S255
G1 X0.1
M106 S0 
G1 X5
G1 X-0.3Y0.1
G1 X-5
M106 S255
G1 X-0.1
M106 S0 
G1 X-0.5
M106 S255
G1 X-0.1
M106 S0 
G1 X-0.2
M106 S255
G1 X-0.1
M106 S0 
G1 X-0.3
M106 S255
G1 X-0.1
M106 S0 
G1 X-0.4
M106 S255
G1 X-0.1
M106 S0 
G1 X-0.2
M106 S255
G1 X-0.1
M106 S0 
G1 X-0.2
M106 S255
G1 X-0.1
M106 S0 
G1 X-0.2
M106 S255
G1 X-0.1
M106 S0 
G1 X-0.1
M106 S255
G1 X-0.1
M106 S0 
G1 X-0.2
M106 S255
G1 X-0.1
M106 S0 
G1 X-0.1
M106 S255
G1 X-0.1
M106 S0 
G1 X-0.1
M106 S255
G1 X-0.1
M106 S0 
G1 X-0.1
M106 S255
G1 X-0.1
M106 S0 
G1 X-0.2
M106 S255
G1 X-0.2
M106 S0 
G1 X-0.1
M106 S255
G1 X-0.1
M106 S0 
G1 X-0.1
M106 S255
G1 X-0.1
M106 S0 
G1 X-0.1
M106 S255
G1 X-0.1
M106 S0 
G1 X-0.1
M106 S255
G1 X-0.2
M106 S0 
G1 X-0.2
M106 S255
G1 X-0.1
M106 S0 
G1 X-0.1
M106 S255
G1 X-0.3
M106 S0 
G1 X-0.1
M106 S255
G1 X-0.2
M106 S0 
G1 X-0.1
M106 S255
G1 X-0.2
M106 S0 
G1 X-0.1
M106 S255
G1 X-0.3
M106 S0 
G1 X-0.1
M106 S255
G1 X-0.2
M106 S0 
G1 X-0.1
M106 S255
G1 X-0.2
M106 S0 
G1 X-0.1
M106 S255
G1 X-0.4
M106 S0 
G1 X-0.1
M106 S255
G1 X-0.2
M106 S0 
G1 X-0.1
M106 S255
G1 X-0.4
M106 S0 
G1 X-0.1
M106 S255
G1 X-0.5
M106 S0 
G1 X-0.1
M106 S255
G1 X-0.3
M106 S0 
G1 X-0.1
M106 S255
G1 X-0.4
M106 S0 
G1 X-0.1
M106 S255
G1 X-0.3
M106 S0 
G1 X-0.1
M106 S255
G1 X-0.9
M106 S0 
G1 X-0.1
M106 S255
G1 X-0.1
M106 S0 
G1 X-0.1
M106 S255
G1 X-0.1
M106 S0 
G1 X-0.1
M106 S255
G1 X-0.1
M106 S0 
G1 X-0.1
M106 S255
G1 X-0.1
M106 S0 
G1 X-0.1
M106 S255
G1 X-0.1
M106 S0 
G1 X-0.1
M106 S255
G1 X-0.1
M106 S0 
G1 X-0.1
M106 S255
G1 X-0.1
M106 S0 
G1 X-0.1
M106 S255
G1 X-0.1
M106 S0 
G1 X-0.1
M106 S255
G1 X-0.1
M106 S0 
G1 X-0.1
M106 S255
G1 X-0.1
M106 S0 
G1 X-0.1
M106 S255
G1 X-0.1
M106 S0 
G1 X-0.1
M106 S255
G1 X-0.1
M106 S0 
G1 X-0.2
M106 S255
G1 X-0.2
M106 S0 
G1 X-0.1
M106 S255
G1 X-0.2
M106 S0 
G1 X-0.1
M106 S255
G1 X-0.1
M106 S0 
G1 X-0.1
M106 S255
G1 X-0.7
M106 S0 
G1 X-0.1
M106 S255
G1 X-0.2
M106 S0 
G1 X-0.1
M106 S255
G1 X-0.2
M106 S0 
G1 X-0.1
M106 S255
G1 X-0.8
M106 S0 
G1 X-0.1
M106 S255
G1 X-0.4
M106 S0 
G1 X-0.1
M106 S255
G1 X-0.3
M106 S0 
G1 X-0.1
M106 S255
G1 X-0.2
M106 S0 
G1 X-0.1
M106 S255
G1 X-0.2
M106 S0 
G1 X-0.1
M106 S255
G1 X-0.2
M106 S0 
G1 X-0.1
M106 S255
G1 X-0.1
M106 S0 
G1 X-0.1
M106 S255
G1 X-0.1
M106 S0 
G1 X-0.2
M106 S255
G1 X-0.1
M106 S0 
G1 X-0.2
M106 S255
G1 X-0.1
M106 S0 
G1 X-0.5
M106 S255
G1 X-0.1
M106 S0 
G1 X-0.2
M106 S255
G1 X-0.1
M106 S0 
G1 X-1.3
M106 S255
G1 X-0.1
M106 S0 
G1 X-1.6
M106 S255
G1 X-0.1
M106 S0 
G1 X-0.7
M106 S255
G1 X-0.1
M106 S0 
G1 X-5
G1 X-0.3Y0.1
G1 X5
M106 S255
G1 X0.1
M106 S0 
G1 X0.7
M106 S255
G1 X0.1
M106 S0 
G1 X2.3
M106 S255
G1 X0.1
M106 S0 
G1 X0.7
M106 S255
G1 X0.1
M106 S0 
G1 X0.7
M106 S255
G1 X0.1
M106 S0 
G1 X0.6
M106 S255
G1 X0.1
M106 S0 
G1 X0.2
M106 S255
G1 X0.1
M106 S0 
G1 X0.1
M106 S255
G1 X0.1
M106 S0 
G1 X0.1
M106 S255
G1 X0.1
M106 S0 
G1 X0.1
M106 S255
G1 X1.6
M106 S0 
G1 X0.1
M106 S255
G1 X0.2
M106 S0 
G1 X0.1
M106 S255
G1 X1.9
M106 S0 
G1 X0.2
M106 S255
G1 X0.1
M106 S0 
G1 X0.2
M106 S255
G1 X0.1
M106 S0 
G1 X0.1
M106 S255
G1 X0.1
M106 S0 
G1 X0.1
M106 S255
G1 X0.1
M106 S0 
G1 X0.1
M106 S255
G1 X0.1
M106 S0 
G1 X0.1
M106 S255
G1 X0.1
M106 S0 
G1 X0.2
M106 S255
G1 X0.1
M106 S0 
G1 X0.2
M106 S255
G1 X0.1
M106 S0 
G1 X0.1
M106 S255
G1 X0.1
M106 S0 
G1 X0.1
M106 S255
G1 X0.1
M106 S0 
G1 X0.1
M106 S255
G1 X0.1
M106 S0 
G1 X0.1
M106 S255
G1 X0.1
M106 S0 
G1 X0.1
M106 S255
G1 X0.1
M106 S0 
G1 X0.1
M106 S255
G1 X0.2
M106 S0 
G1 X0.1
M106 S255
G1 X0.2
M106 S0 
G1 X0.1
M106 S255
G1 X1.5
M106 S0 
G1 X0.1
M106 S255
G1 X0.4
M106 S0 
G1 X0.1
M106 S255
G1 X0.3
M106 S0 
G1 X0.1
M106 S255
G1 X0.8
M106 S0 
G1 X0.1
M106 S255
G1 X0.4
M106 S0 
G1 X0.1
M106 S255
G1 X0.4
M106 S0 
G1 X0.1
M106 S255
G1 X0.6
M106 S0 
G1 X0.1
M106 S255
G1 X0.2
M106 S0 
G1 X0.1
M106 S255
G1 X0.1
M106 S0 
G1 X0.1
M106 S255
G1 X0.3
M106 S0 
G1 X0.2
M106 S255
G1 X0.1
M106 S0 
G1 X0.1
M106 S255
G1 X0.2
M106 S0 
G1 X0.1
M106 S255
G1 X0.1
M106 S0 
G1 X0.1
M106 S255
G1 X0.1
M106 S0 
G1 X0.1
M106 S255
G1 X0.2
M106 S0 
G1 X0.1
M106 S255
G1 X0.1
M106 S0 
G1 X0.2
M106 S255
G1 X0.1
M106 S0 
G1 X0.2
M106 S255
G1 X0.1
M106 S0 
G1 X0.2
M106 S255
G1 X0.1
M106 S0 
G1 X0.2
M106 S255
G1 X0.1
M106 S0 
G1 X0.2
M106 S255
G1 X0.1
M106 S0 
G1 X0.2
M106 S255
G1 X0.1
M106 S0 
G1 X0.3
M106 S255
G1 X0.1
M106 S0 
G1 X0.5
M106 S255
G1 X0.1
M106 S0 
G1 X0.4
M106 S255
G1 X0.1
M106 S0 
G1 X0.2
M106 S255
G1 X0.1
M106 S0 
G1 X0.7
M106 S255
G1 X0.1
M106 S0 
G1 X5
G1 X0.4Y0.1
G1 X-5
M106 S255
G1 X-0.1
M106 S0 
G1 X-0.6
M106 S255
G1 X-0.1
M106 S0 
G1 X-0.9
M106 S255
G1 X-0.1
M106 S0 
G1 X-0.5
M106 S255
G1 X-0.1
M106 S0 
G1 X-0.1
M106 S255
G1 X-0.1
M106 S0 
G1 X-0.3
M106 S255
G1 X-0.1
M106 S0 
G1 X-0.2
M106 S255
G1 X-0.1
M106 S0 
G1 X-0.1
M106 S255
G1 X-0.1
M106 S0 
G1 X-0.2
M106 S255
G1 X-0.1
M106 S0 
G1 X-0.2
M106 S255
G1 X-0.2
M106 S0 
G1 X-0.2
M106 S255
G1 X-0.1
M106 S0 
G1 X-0.1
M106 S255
G1 X-0.2
M106 S0 
G1 X-0.1
M106 S255
G1 X-0.1
M106 S0 
G1 X-0.2
M106 S255
G1 X-0.1
M106 S0 
G1 X-0.1
M106 S255
G1 X-0.2
M106 S0 
G1 X-0.1
M106 S255
G1 X-0.1
M106 S0 
G1 X-0.1
M106 S255
G1 X-0.1
M106 S0 
G1 X-0.1
M106 S255
G1 X-0.2
M106 S0 
G1 X-0.1
M106 S255
G1 X-0.1
M106 S0 
G1 X-0.1
M106 S255
G1 X-0.3
M106 S0 
G1 X-0.1
M106 S255
G1 X-0.2
M106 S0 
G1 X-0.1
M106 S255
G1 X-0.2
M106 S0 
G1 X-0.1
M106 S255
G1 X-0.4
M106 S0 
G1 X-0.1
M106 S255
G1 X-0.5
M106 S0 
G1 X-0.1
M106 S255
G1 X-0.5
M106 S0 
G1 X-0.1
M106 S255
G1 X-0.2
M106 S0 
G1 X-0.1
M106 S255
G1 X-1.3
M106 S0 
G1 X-0.1
M106 S255
G1 X-0.2
M106 S0 
G1 X-0.1
M106 S255
G1 X-0.3
M106 S0 
G1 X-0.1
M106 S255
G1 X-0.6
M106 S0 
G1 X-0.1
M106 S255
G1 X-0.2
M106 S0 
G1 X-0.1
M106 S255
G1 X-0.4
M106 S0 
G1 X-0.1
M106 S255
G1 X-0.3
M106 S0 
G1 X-0.1
M106 S255
G1 X-0.2
M106 S0 
G1 X-0.1
M106 S255
G1 X-0.1
M106 S0 
G1 X-0.1
M106 S255
G1 X-0.1
M106 S0 
G1 X-0.1
M106 S255
G1 X-0.2
M106 S0 
G1 X-0.1
M106 S255
G1 X-0.1
M106 S0 
G1 X-0.1
M106 S255
G1 X-0.2
M106 S0 
G1 X-0.1
M106 S255
G1 X-0.2
M106 S0 
G1 X-0.1
M106 S255
G1 X-0.8
M106 S0 
G1 X-0.1
M106 S255
G1 X-0.7
M106 S0 
G1 X-0.1
M106 S255
G1 X-0.3
M106 S0 
G1 X-0.1
M106 S255
G1 X-0.2
M106 S0 
G1 X-0.1
M106 S255
G1 X-0.6
M106 S0 
G1 X-0.1
M106 S255
G1 X-0.2
M106 S0 
G1 X-0.1
M106 S255
G1 X-0.2
M106 S0 
G1 X-0.1
M106 S255
G1 X-0.5
M106 S0 
G1 X-0.1
M106 S255
G1 X-0.2
M106 S0 
G1 X-0.1
M106 S255
G1 X-0.2
M106 S0 
G1 X-0.1
M106 S255
G1 X-0.1
M106 S0 
G1 X-0.1
M106 S255
G1 X-0.1
M106 S0 
G1 X-0.2
M106 S255
G1 X-0.1
M106 S0 
G1 X-0.1
M106 S255
G1 X-0.1
M106 S0 
G1 X-0.1
M106 S255
G1 X-0.1
M106 S0 
G1 X-0.2
M106 S255
G1 X-0.1
M106 S0 
G1 X-0.2
M106 S255
G1 X-0.1
M106 S0 
G1 X-0.7
M106 S255
G1 X-0.1
M106 S0 
G1 X-0.9
M106 S255
G1 X-0.1
M106 S0 
G1 X-5
G1 X-2.8Y0.1
G1 X5
M106 S255
G1 X0.1
M106 S0 
G1 X3.9
M106 S255
G1 X0.1
M106 S0 
G1 X0.2
M106 S255
G1 X0.1
M106 S0 
G1 X0.3
M106 S255
G1 X0.1
M106 S0 
G1 X0.2
M106 S255
G1 X0.1
M106 S0 
G1 X0.2
M106 S255
G1 X0.1
M106 S0 
G1 X0.1
M106 S255
G1 X0.1
M106 S0 
G1 X0.1
M106 S255
G1 X0.2
M106 S0 
G1 X0.1
M106 S255
G1 X1
M106 S0 
G1 X0.1
M106 S255
G1 X0.2
M106 S0 
G1 X0.1
M106 S255
G1 X0.5
M106 S0 
G1 X0.1
M106 S255
G1 X0.3
M106 S0 
G1 X0.1
M106 S255
G1 X0.9
M106 S0 
G1 X0.1
M106 S255
G1 X0.3
M106 S0 
G1 X0.1
M106 S255
G1 X1.5
M106 S0 
G1 X0.1
M106 S255
G1 X0.1
M106 S0 
G1 X0.1
M106 S255
G1 X0.1
M106 S0 
G1 X0.1
M106 S255
G1 X0.1
M106 S0 
G1 X0.2
M106 S255
G1 X0.2
M106 S0 
G1 X0.1
M106 S255
G1 X0.3
M106 S0 
G1 X0.1
M106 S255
G1 X1.7
M106 S0 
G1 X0.1
M106 S255
G1 X0.4
M106 S0 
G1 X0.1
M106 S255
G1 X0.8
M106 S0 
G1 X0.1
M106 S255
G1 X0.2
M106 S0 
G1 X0.1
M106 S255
G1 X0.2
M106 S0 
G1 X0.1
M106 S255
G1 X0.7
M106 S0 
G1 X0.1
M106 S255
G1 X0.7
M106 S0 
G1 X0.1
M106 S255
G1 X0.8
M106 S0 
G1 X0.1
M106 S255
G1 X0.5
M106 S0 
G1 X0.1
M106 S255
G1 X0.2
M106 S0 
G1 X0.1
M106 S255
G1 X0.2
M106 S0 
G1 X0.1
M106 S255
G1 X0.2
M106 S0 
G1 X0.1
M106 S255
G1 X0.1
M106 S0 
G1 X0.1
M106 S255
G1 X0.1
M106 S0 
G1 X0.1
M106 S255
G1 X0.1
M106 S0 
G1 X0.1
M106 S255
G1 X0.2
M106 S0 
G1 X0.1
M106 S255
G1 X0.2
M106 S0 
G1 X0.2
M106 S255
G1 X0.1
M106 S0 
G1 X0.1
M106 S255
G1 X0.1
M106 S0 
G1 X0.1
M106 S255
G1 X0.1
M106 S0 
G1 X0.2
M106 S255
G1 X0.1
M106 S0 
G1 X0.1
M106 S255
G1 X0.1
M106 S0 
G1 X0.2
M106 S255
G1 X0.1
M106 S0 
G1 X0.2
M106 S255
G1 X0.1
M106 S0 
G1 X0.2
M106 S255
G1 X0.1
M106 S0 
G1 X0.2
M106 S255
G1 X0.1
M106 S0 
G1 X0.2
M106 S255
G1 X0.1
M106 S0 
G1 X0.2
M106 S255
G1 X0.1
M106 S0 
G1 X0.3
M106 S255
G1 X0.1
M106 S0 
G1 X0.2
M106 S255
G1 X0.1
M106 S0 
G1 X5
G1 X0.7Y0.1
G1 X-5
M106 S255
G1 X-0.1
M106 S0 
G1 X-0.2
M106 S255
G1 X-0.1
M106 S0 
G1 X-0.2
M106 S255
G1 X-0.1
M106 S0 
G1 X-0.4
M106 S255
G1 X-0.1
M106 S0 
G1 X-0.3
M106 S255
G1 X-0.1
M106 S0 
G1 X-0.2
M106 S255
G1 X-0.1
M106 S0 
G1 X-0.3
M106 S255
G1 X-0.1
M106 S0 
G1 X-0.2
M106 S255
G1 X-0.1
M106 S0 
G1 X-0.2
M106 S255
G1 X-0.1
M106 S0 
G1 X-0.2
M106 S255
G1 X-0.1
M106 S0 
G1 X-0.2
M106 S255
G1 X-0.1
M106 S0 
G1 X-0.1
M106 S255
G1 X-0.1
M106 S0 
G1 X-0.1
M106 S255
G1 X-0.1
M106 S0 
G1 X-0.1
M106 S255
G1 X-0.2
M106 S0 
G1 X-0.1
M106 S255
G1 X-0.2
M106 S0 
G1 X-0.1
M106 S255
G1 X-0.1
M106 S0 
G1 X-0.1
M106 S255
G1 X-0.1
M106 S0 
G1 X-0.1
M106 S255
G1 X-0.1
M106 S0 
G1 X-0.1
M106 S255
G1 X-0.2
M106 S0 
G1 X-0.1
M106 S255
G1 X-0.2
M106 S0 
G1 X-0.1
M106 S255
G1 X-0.2
M106 S0 
G1 X-0.1
M106 S255
G1 X-0.2
M106 S0 
G1 X-0.1
M106 S255
G1 X-0.3
M106 S0 
G1 X-0.1
M106 S255
G1 X-0.6
M106 S0 
G1 X-0.1
M106 S255
G1 X-0.8
M106 S0 
G1 X-0.1
M106 S255
G1 X-0.1
M106 S0 
G1 X-0.1
M106 S255
G1 X-0.5
M106 S0 
G1 X-0.1
M106 S255
G1 X-0.2
M106 S0 
G1 X-0.1
M106 S255
G1 X-0.9
M106 S0 
G1 X-0.1
M106 S255
G1 X-0.2
M106 S0 
G1 X-0.1
M106 S255
G1 X-0.8
M106 S0 
G1 X-0.1
M106 S255
G1 X-0.7
M106 S0 
G1 X-0.1
M106 S255
G1 X-0.5
M106 S0 
G1 X-0.1
M106 S255
G1 X-0.4
M106 S0 
G1 X-0.1
M106 S255
G1 X-0.3
M106 S0 
G1 X-0.1
M106 S255
G1 X-2.1
M106 S0 
G1 X-0.1
M106 S255
G1 X-0.9
M106 S0 
G1 X-0.1
M106 S255
G1 X-0.2
M106 S0 
G1 X-0.1
M106 S255
G1 X-0.1
M106 S0 
G1 X-0.1
M106 S255
G1 X-0.7
M106 S0 
G1 X-0.1
M106 S255
G1 X-1.4
M106 S0 
G1 X-0.1
M106 S255
G1 X-0.1
M106 S0 
G1 X-0.1
M106 S255
G1 X-0.1
M106 S0 
G1 X-0.1
M106 S255
G1 X-0.1
M106 S0 
G1 X-0.2
M106 S255
G1 X-0.1
M106 S0 
G1 X-0.2
M106 S255
G1 X-0.1
M106 S0 
G1 X-0.2
M106 S255
G1 X-0.1
M106 S0 
G1 X-0.2
M106 S255
G1 X-0.1
M106 S0 
G1 X-0.2
M106 S255
G1 X-0.1
M106 S0 
G1 X-0.4
M106 S255
G1 X-0.1
M106 S0 
G1 X-0.2
M106 S255
G1 X-0.1
M106 S0 
G1 X-0.1
M106 S255
G1 X-0.1
M106 S0 
G1 X-0.7
M106 S255
G1 X-0.1
M106 S0 
G1 X-5
G1 X-2.8Y0.1
G1 X5
M106 S255
G1 X0.1
M106 S0 
G1 X1.8
M106 S255
G1 X0.1
M106 S0 
G1 X0.2
M106 S255
G1 X0.1
M106 S0 
G1 X0.2
M106 S255
G1 X0.1
M106 S0 
G1 X0.5
M106 S255
G1 X0.1
M106 S0 
G1 X0.2
M106 S255
G1 X0.1
M106 S0 
G1 X0.4
M106 S255
G1 X0.1
M106 S0 
G1 X0.2
M106 S255
G1 X0.1
M106 S0 
G1 X0.5
M106 S255
G1 X0.1
M106 S0 
G1 X0.2
M106 S255
G1 X0.1
M106 S0 
G1 X0.1
M106 S255
G1 X0.2
M106 S0 
G1 X0.1
M106 S255
G1 X0.2
M106 S0 
G1 X0.1
M106 S255
G1 X0.2
M106 S0 
G1 X0.1
M106 S255
G1 X0.1
M106 S0 
G1 X0.1
M106 S255
G1 X0.2
M106 S0 
G1 X0.1
M106 S255
G1 X0.2
M106 S0 
G1 X0.1
M106 S255
G1 X0.2
M106 S0 
G1 X0.1
M106 S255
G1 X0.2
M106 S0 
G1 X0.1
M106 S255
G1 X0.2
M106 S0 
G1 X0.1
M106 S255
G1 X0.4
M106 S0 
G1 X0.1
M106 S255
G1 X0.2
M106 S0 
G1 X0.1
M106 S255
G1 X0.9
M106 S0 
G1 X0.1
M106 S255
G1 X0.2
M106 S0 
G1 X0.1
M106 S255
G1 X0.6
M106 S0 
G1 X0.1
M106 S255
G1 X0.2
M106 S0 
G1 X0.1
M106 S255
G1 X2.7
M106 S0 
G1 X0.1
M106 S255
G1 X0.5
M106 S0 
G1 X0.1
M106 S255
G1 X0.2
M106 S0 
G1 X0.1
M106 S255
G1 X0.5
M106 S0 
G1 X0.1
M106 S255
G1 X0.2
M106 S0 
G1 X0.1
M106 S255
G1 X0.7
M106 S0 
G1 X0.1
M106 S255
G1 X0.2
M106 S0 
G1 X0.1
M106 S255
G1 X0.2
M106 S0 
G1 X0.1
M106 S255
G1 X0.5
M106 S0 
G1 X0.1
M106 S255
G1 X0.7
M106 S0 
G1 X0.1
M106 S255
G1 X0.2
M106 S0 
G1 X0.1
M106 S255
G1 X0.2
M106 S0 
G1 X0.1
M106 S255
G1 X0.4
M106 S0 
G1 X0.1
M106 S255
G1 X1.1
M106 S0 
G1 X0.1
M106 S255
G1 X0.2
M106 S0 
G1 X0.1
M106 S255
G1 X0.2
M106 S0 
G1 X0.1
M106 S255
G1 X0.2
M106 S0 
G1 X0.1
M106 S255
G1 X0.1
M106 S0 
G1 X0.1
M106 S255
G1 X0.1
M106 S0 
G1 X0.1
M106 S255
G1 X0.1
M106 S0 
G1 X0.1
M106 S255
G1 X0.2
M106 S0 
G1 X0.2
M106 S255
G1 X0.1
M106 S0 
G1 X0.1
M106 S255
G1 X0.1
M106 S0 
G1 X0.1
M106 S255
G1 X0.1
M106 S0 
G1 X0.1
M106 S255
G1 X0.2
M106 S0 
G1 X0.1
M106 S255
G1 X0.1
M106 S0 
G1 X0.1
M106 S255
G1 X0.1
M106 S0 
G1 X0.1
M106 S255
G1 X0.1
M106 S0 
G1 X0.1
M106 S255
G1 X0.1
M106 S0 
G1 X0.2
M106 S255
G1 X0.1
M106 S0 
G1 X0.1
M106 S255
G1 X0.1
M106 S0 
G1 X0.2
M106 S255
G1 X0.1
M106 S0 
G1 X0.3
M106 S255
G1 X0.1
M106 S0 
G1 X0.3
M106 S255
G1 X0.1
M106 S0 
G1 X1
M106 S255
G1 X0.1
M106 S0 
G1 X0.2
M106 S255
G1 X0.1
M106 S0 
G1 X5
G1 X0.3Y0.1
G1 X-5
M106 S255
G1 X-0.1
M106 S0 
G1 X-1
M106 S255
G1 X-0.1
M106 S0 
G1 X-0.2
M106 S255
G1 X-0.1
M106 S0 
G1 X-0.4
M106 S255
G1 X-0.1
M106 S0 
G1 X-0.3
M106 S255
G1 X-0.1
M106 S0 
G1 X-0.2
M106 S255
G1 X-0.1
M106 S0 
G1 X-0.3
M106 S255
G1 X-0.1
M106 S0 
G1 X-0.2
M106 S255
G1 X-0.1
M106 S0 
G1 X-0.2
M106 S255
G1 X-0.1
M106 S0 
G1 X-0.1
M106 S255
G1 X-0.1
M106 S0 
G1 X-0.2
M106 S255
G1 X-0.1
M106 S0 
G1 X-0.2
M106 S255
G1 X-0.1
M106 S0 
G1 X-0.1
M106 S255
G1 X-0.1
M106 S0 
G1 X-0.1
M106 S255
G1 X-0.2
M106 S0 
G1 X-0.1
M106 S255
G1 X-0.1
M106 S0 
G1 X-0.1
M106 S255
G1 X-0.2
M106 S0 
G1 X-0.1
M106 S255
G1 X-0.2
M106 S0 
G1 X-0.1
M106 S255
G1 X-0.2
M106 S0 
G1 X-0.2
M106 S255
G1 X-0.1
M106 S0 
G1 X-0.1
M106 S255
G1 X-0.1
M106 S0 
G1 X-0.1
M106 S255
G1 X-0.4
M106 S0 
G1 X-0.1
M106 S255
G1 X-0.3
M106 S0 
G1 X-0.1
M106 S255
G1 X-0.3
M106 S0 
G1 X-0.1
M106 S255
G1 X-1.7
M106 S0 
G1 X-0.1
M106 S255
G1 X-0.4
M106 S0 
G1 X-0.1
M106 S255
G1 X-1.1
M106 S0 
G1 X-0.1
M106 S255
G1 X-0.2
M106 S0 
G1 X-0.1
M106 S255
G1 X-0.2
M106 S0 
G1 X-0.1
M106 S255
G1 X-1.3
M106 S0 
G1 X-0.1
M106 S255
G1 X-0.7
M106 S0 
G1 X-0.1
M106 S255
G1 X-1.8
M106 S0 
G1 X-0.1
M106 S255
G1 X-1
M106 S0 
G1 X-0.1
M106 S255
G1 X-0.1
M106 S0 
G1 X-0.1
M106 S255
G1 X-0.8
M106 S0 
G1 X-0.1
M106 S255
G1 X-0.3
M106 S0 
G1 X-0.1
M106 S255
G1 X-0.6
M106 S0 
G1 X-0.1
M106 S255
G1 X-1.4
M106 S0 
G1 X-0.1
M106 S255
G1 X-0.2
M106 S0 
G1 X-0.1
M106 S255
G1 X-0.3
M106 S0 
G1 X-0.1
M106 S255
G1 X-0.2
M106 S0 
G1 X-0.1
M106 S255
G1 X-0.1
M106 S0 
G1 X-0.1
M106 S255
G1 X-0.1
M106 S0 
G1 X-0.1
M106 S255
G1 X-0.2
M106 S0 
G1 X-0.2
M106 S255
G1 X-0.2
M106 S0 
G1 X-0.1
M106 S255
G1 X-0.1
M106 S0 
G1 X-0.2
M106 S255
G1 X-0.1
M106 S0 
G1 X-0.4
M106 S255
G1 X-0.1
M106 S0 
G1 X-0.5
M106 S255
G1 X-0.1
M106 S0 
G1 X-1.2
M106 S255
G1 X-0.1
M106 S0 
G1 X-0.3
M106 S255
G1 X-0.1
M106 S0 
G1 X-5
G1 X-1.5Y0.1
G1 X5
M106 S255
G1 X0.1
M106 S0 
G1 X2.8
M106 S255
G1 X0.1
M106 S0 
G1 X0.4
M106 S255
G1 X0.1
M106 S0 
G1 X0.1
M106 S255
G1 X0.1
M106 S0 
G1 X0.2
M106 S255
G1 X0.1
M106 S0 
G1 X0.1
M106 S255
G1 X0.1
M106 S0 
G1 X0.2
M106 S255
G1 X0.1
M106 S0 
G1 X0.1
M106 S255
G1 X0.1
M106 S0 
G1 X0.1
M106 S255
G1 X0.4
M106 S0 
G1 X0.1
M106 S255
G1 X0.6
M106 S0 
G1 X0.1
M106 S255
G1 X0.2
M106 S0 
G1 X0.1
M106 S255
G1 X0.4
M106 S0 
G1 X0.1
M106 S255
G1 X0.6
M106 S0 
G1 X0.1
M106 S255
G1 X0.2
M106 S0 
G1 X0.1
M106 S255
G1 X0.2
M106 S0 
G1 X0.1
M106 S255
G1 X0.4
M106 S0 
G1 X0.1
M106 S255
G1 X0.2
M106 S0 
G1 X0.1
M106 S255
G1 X0.3
M106 S0 
G1 X0.1
M106 S255
G1 X0.2
M106 S0 
G1 X0.1
M106 S255
G1 X0.2
M106 S0 
G1 X0.1
M106 S255
G1 X0.8
M106 S0 
G1 X0.1
M106 S255
G1 X0.2
M106 S0 
G1 X0.1
M106 S255
G1 X1.5
M106 S0 
G1 X0.1
M106 S255
G1 X0.3
M106 S0 
G1 X0.1
M106 S255
G1 X0.2
M106 S0 
G1 X0.1
M106 S255
G1 X0.3
M106 S0 
G1 X0.1
M106 S255
G1 X0.9
M106 S0 
G1 X0.1
M106 S255
G1 X0.2
M106 S0 
G1 X0.1
M106 S255
G1 X0.1
M106 S0 
G1 X0.1
M106 S255
G1 X1.4
M106 S0 
G1 X0.1
M106 S255
G1 X0.2
M106 S0 
G1 X0.1
M106 S255
G1 X1
M106 S0 
G1 X0.1
M106 S255
G1 X0.1
M106 S0 
G1 X0.1
M106 S255
G1 X0.2
M106 S0 
G1 X0.1
M106 S255
G1 X0.2
M106 S0 
G1 X0.1
M106 S255
G1 X0.2
M106 S0 
G1 X0.1
M106 S255
G1 X0.2
M106 S0 
G1 X0.1
M106 S255
G1 X2.1
M106 S0 
G1 X0.1
M106 S255
G1 X0.1
M106 S0 
G1 X0.1
M106 S255
G1 X0.1
M106 S0 
G1 X0.1
M106 S255
G1 X0.1
M106 S0 
G1 X0.1
M106 S255
G1 X0.1
M106 S0 
G1 X0.1
M106 S255
G1 X0.2
M106 S0 
G1 X0.1
M106 S255
G1 X0.2
M106 S0 
G1 X0.1
M106 S255
G1 X0.1
M106 S0 
G1 X0.1
M106 S255
G1 X0.1
M106 S0 
G1 X0.1
M106 S255
G1 X0.2
M106 S0 
G1 X0.1
M106 S255
G1 X0.1
M106 S0 
G1 X0.2
M106 S255
G1 X0.1
M106 S0 
G1 X0.2
M106 S255
G1 X0.1
M106 S0 
G1 X0.2
M106 S255
G1 X0.1
M106 S0 
G1 X0.1
M106 S255
G1 X0.1
M106 S0 
G1 X0.2
M106 S255
G1 X0.1
M106 S0 
G1 X0.2
M106 S255
G1 X0.1
M106 S0 
G1 X0.2
M106 S255
G1 X0.1
M106 S0 
G1 X0.2
M106 S255
G1 X0.1
M106 S0 
G1 X0.2
M106 S255
G1 X0.1
M106 S0 
G1 X0.2
M106 S255
G1 X0.1
M106 S0 
G1 X5
G1 X0.6Y0.1
G1 X-5
M106 S255
G1 X-0.1
M106 S0 
G1 X-0.2
M106 S255
G1 X-0.1
M106 S0 
G1 X-0.1
M106 S255
G1 X-0.1
M106 S0 
G1 X-0.8
M106 S255
G1 X-0.1
M106 S0 
G1 X-0.4
M106 S255
G1 X-0.1
M106 S0 
G1 X-0.2
M106 S255
G1 X-0.1
M106 S0 
G1 X-0.2
M106 S255
G1 X-0.1
M106 S0 
G1 X-0.2
M106 S255
G1 X-0.1
M106 S0 
G1 X-0.1
M106 S255
G1 X-0.1
M106 S0 
G1 X-0.1
M106 S255
G1 X-0.1
M106 S0 
G1 X-0.1
M106 S255
G1 X-0.1
M106 S0 
G1 X-0.1
M106 S255
G1 X-0.1
M106 S0 
G1 X-0.2
M106 S255
G1 X-0.1
M106 S0 
G1 X-0.1
M106 S255
G1 X-0.2
M106 S0 
G1 X-0.1
M106 S255
G1 X-0.1
M106 S0 
G1 X-0.2
M106 S255
G1 X-0.1
M106 S0 
G1 X-0.1
M106 S255
G1 X-0.2
M106 S0 
G1 X-0.1
M106 S255
G1 X-0.2
M106 S0 
G1 X-0.1
M106 S255
G1 X-0.3
M106 S0 
G1 X-0.1
M106 S255
G1 X-0.2
M106 S0 
G1 X-0.1
M106 S255
G1 X-0.2
M106 S0 
G1 X-0.1
M106 S255
G1 X-0.2
M106 S0 
G1 X-0.1
M106 S255
G1 X-0.3
M106 S0 
G1 X-0.1
M106 S255
G1 X-0.3
M106 S0 
G1 X-0.1
M106 S255
G1 X-1.3
M106 S0 
G1 X-0.1
M106 S255
G1 X-0.5
M106 S0 
G1 X-0.1
M106 S255
G1 X-0.2
M106 S0 
G1 X-0.1
M106 S255
G1 X-0.2
M106 S0 
G1 X-0.1
M106 S255
G1 X-0.1
M106 S0 
G1 X-0.1
M106 S255
G1 X-0.6
M106 S0 
G1 X-0.1
M106 S255
G1 X-0.2
M106 S0 
G1 X-0.1
M106 S255
G1 X-0.5
M106 S0 
G1 X-0.1
M106 S255
G1 X-0.1
M106 S0 
G1 X-0.1
M106 S255
G1 X-1
M106 S0 
G1 X-0.1
M106 S255
G1 X-0.2
M106 S0 
G1 X-0.1
M106 S255
G1 X-1.8
M106 S0 
G1 X-0.1
M106 S255
G1 X-0.4
M106 S0 
G1 X-0.1
M106 S255
G1 X-0.2
M106 S0 
G1 X-0.1
M106 S255
G1 X-0.7
M106 S0 
G1 X-0.1
M106 S255
G1 X-0.3
M106 S0 
G1 X-0.1
M106 S255
G1 X-1.2
M106 S0 
G1 X-0.1
M106 S255
G1 X-1.6
M106 S0 
G1 X-0.1
M106 S255
G1 X-0.5
M106 S0 
G1 X-0.1
M106 S255
G1 X-1.3
M106 S0 
G1 X-0.1
M106 S255
G1 X-0.1
M106 S0 
G1 X-0.1
M106 S255
G1 X-0.1
M106 S0 
G1 X-0.1
M106 S255
G1 X-0.2
M106 S0 
G1 X-0.1
M106 S255
G1 X-0.1
M106 S0 
G1 X-0.1
M106 S255
G1 X-0.1
M106 S0 
G1 X-0.3
M106 S255
G1 X-0.1
M106 S0 
G1 X-0.2
M106 S255
G1 X-0.1
M106 S0 
G1 X-0.2
M106 S255
G1 X-0.1
M106 S0 
G1 X-0.3
M106 S255
G1 X-0.1
M106 S0 
G1 X-0.2
M106 S255
G1 X-0.1
M106 S0 
G1 X-1
M106 S255
G1 X-0.1
M106 S0 
G1 X-0.4
M106 S255
G1 X-0.1
M106 S0 
G1 X-5
G1 X0.9Y0.1
G1 X5
M106 S255
G1 X0.1
M106 S0 
G1 X0.2
M106 S255
G1 X0.1
M106 S0 
G1 X0.5
M106 S255
G1 X0.1
M106 S0 
G1 X0.2
M106 S255
G1 X0.1
M106 S0 
G1 X0.2
M106 S255
G1 X0.2
M106 S0 
G1 X0.2
M106 S255
G1 X0.1
M106 S0 
G1 X0.1
M106 S255
G1 X0.1
M106 S0 
G1 X0.1
M106 S255
G1 X0.1
M106 S0 
G1 X0.1
M106 S255
G1 X0.1
M106 S0 
G1 X0.1
M106 S255
G1 X0.1
M106 S0 
G1 X0.1
M106 S255
G1 X0.8
M106 S0 
G1 X0.1
M106 S255
G1 X0.1
M106 S0 
G1 X0.1
M106 S255
G1 X0.1
M106 S0 
G1 X0.1
M106 S255
G1 X0.2
M106 S0 
G1 X0.1
M106 S255
G1 X0.5
M106 S0 
G1 X0.1
M106 S255
G1 X0.2
M106 S0 
G1 X0.1
M106 S255
G1 X0.2
M106 S0 
G1 X0.1
M106 S255
G1 X0.8
M106 S0 
G1 X0.1
M106 S255
G1 X0.2
M106 S0 
G1 X0.1
M106 S255
G1 X0.5
M106 S0 
G1 X0.1
M106 S255
G1 X0.2
M106 S0 
G1 X0.1
M106 S255
G1 X0.2
M106 S0 
G1 X0.1
M106 S255
G1 X0.5
M106 S0 
G1 X0.1
M106 S255
G1 X0.4
M106 S0 
G1 X0.1
M106 S255
G1 X1
M106 S0 
G1 X0.1
M106 S255
G1 X0.4
M106 S0 
G1 X0.1
M106 S255
G1 X1.2
M106 S0 
G1 X0.1
M106 S255
G1 X0.7
M106 S0 
G1 X0.1
M106 S255
G1 X0.3
M106 S0 
G1 X0.1
M106 S255
G1 X0.8
M106 S0 
G1 X0.1
M106 S255
G1 X0.2
M106 S0 
G1 X0.1
M106 S255
G1 X0.4
M106 S0 
G1 X0.1
M106 S255
G1 X0.2
M106 S0 
G1 X0.1
M106 S255
G1 X1.9
M106 S0 
G1 X0.1
M106 S255
G1 X0.2
M106 S0 
G1 X0.1
M106 S255
G1 X0.4
M106 S0 
G1 X0.1
M106 S255
G1 X0.8
M106 S0 
G1 X0.1
M106 S255
G1 X0.8
M106 S0 
G1 X0.1
M106 S255
G1 X0.2
M106 S0 
G1 X0.1
M106 S255
G1 X0.1
M106 S0 
G1 X0.1
M106 S255
G1 X0.2
M106 S0 
G1 X0.1
M106 S255
G1 X0.1
M106 S0 
G1 X0.1
M106 S255
G1 X0.2
M106 S0 
G1 X0.1
M106 S255
G1 X0.2
M106 S0 
G1 X0.1
M106 S255
G1 X0.1
M106 S0 
G1 X0.1
M106 S255
G1 X0.1
M106 S0 
G1 X0.1
M106 S255
G1 X0.2
M106 S0 
G1 X0.1
M106 S255
G1 X0.1
M106 S0 
G1 X0.1
M106 S255
G1 X0.1
M106 S0 
G1 X0.2
M106 S255
G1 X0.1
M106 S0 
G1 X0.1
M106 S255
G1 X0.1
M106 S0 
G1 X0.1
M106 S255
G1 X0.1
M106 S0 
G1 X0.2
M106 S255
G1 X0.1
M106 S0 
G1 X0.2
M106 S255
G1 X0.1
M106 S0 
G1 X0.2
M106 S255
G1 X0.1
M106 S0 
G1 X0.1
M106 S255
G1 X0.1
M106 S0 
G1 X0.2
M106 S255
G1 X0.1
M106 S0 
G1 X0.2
M106 S255
G1 X0.1
M106 S0 
G1 X0.2
M106 S255
G1 X0.1
M106 S0 
G1 X0.9
M106 S255
G1 X0.1
M106 S0 
G1 X0.2
M106 S255
G1 X0.1
M106 S0 
G1 X5
G1 X-0.7Y0.1
G1 X-5
M106 S255
G1 X-0.1
M106 S0 
G1 X-0.2
M106 S255
G1 X-0.1
M106 S0 
G1 X-0.4
M106 S255
G1 X-0.1
M106 S0 
G1 X-0.2
M106 S255
G1 X-0.1
M106 S0 
G1 X-0.2
M106 S255
G1 X-0.1
M106 S0 
G1 X-0.2
M106 S255
G1 X-0.1
M106 S0 
G1 X-0.2
M106 S255
G1 X-0.1
M106 S0 
G1 X-0.2
M106 S255
G1 X-0.1
M106 S0 
G1 X-0.1
M106 S255
G1 X-0.1
M106 S0 
G1 X-0.2
M106 S255
G1 X-0.1
M106 S0 
G1 X-0.2
M106 S255
G1 X-0.2
M106 S0 
G1 X-0.1
M106 S255
G1 X-0.1
M106 S0 
G1 X-0.1
M106 S255
G1 X-0.2
M106 S0 
G1 X-0.1
M106 S255
G1 X-0.1
M106 S0 
G1 X-0.1
M106 S255
G1 X-0.1
M106 S0 
G1 X-0.1
M106 S255
G1 X-0.2
M106 S0 
G1 X-0.1
M106 S255
G1 X-0.2
M106 S0 
G1 X-0.1
M106 S255
G1 X-0.1
M106 S0 
G1 X-0.1
M106 S255
G1 X-0.2
M106 S0 
G1 X-0.1
M106 S255
G1 X-0.1
M106 S0 
G1 X-0.1
M106 S255
G1 X-0.9
M106 S0 
G1 X-0.1
M106 S255
G1 X-0.5
M106 S0 
G1 X-0.1
M106 S255
G1 X-0.2
M106 S0 
G1 X-0.1
M106 S255
G1 X-0.5
M106 S0 
G1 X-0.1
M106 S255
G1 X-0.3
M106 S0 
G1 X-0.1
M106 S255
G1 X-0.4
M106 S0 
G1 X-0.1
M106 S255
G1 X-0.1
M106 S0 
G1 X-0.1
M106 S255
G1 X-0.2
M106 S0 
G1 X-0.1
M106 S255
G1 X-0.2
M106 S0 
G1 X-0.1
M106 S255
G1 X-0.2
M106 S0 
G1 X-0.1
M106 S255
G1 X-0.2
M106 S0 
G1 X-0.1
M106 S255
G1 X-0.2
M106 S0 
G1 X-0.1
M106 S255
G1 X-0.8
M106 S0 
G1 X-0.1
M106 S255
G1 X-0.7
M106 S0 
G1 X-0.1
M106 S255
G1 X-0.4
M106 S0 
G1 X-0.1
M106 S255
G1 X-0.4
M106 S0 
G1 X-0.1
M106 S255
G1 X-0.6
M106 S0 
G1 X-0.1
M106 S255
G1 X-0.2
M106 S0 
G1 X-0.1
M106 S255
G1 X-0.2
M106 S0 
G1 X-0.1
M106 S255
G1 X-1
M106 S0 
G1 X-0.1
M106 S255
G1 X-0.2
M106 S0 
G1 X-0.1
M106 S255
G1 X-0.2
M106 S0 
G1 X-0.1
M106 S255
G1 X-0.1
M106 S0 
G1 X-0.1
M106 S255
G1 X-0.2
M106 S0 
G1 X-0.1
M106 S255
G1 X-0.7
M106 S0 
G1 X-0.1
M106 S255
G1 X-1.8
M106 S0 
G1 X-0.1
M106 S255
G1 X-0.2
M106 S0 
G1 X-0.1
M106 S255
G1 X-0.1
M106 S0 
G1 X-0.1
M106 S255
G1 X-0.5
M106 S0 
G1 X-0.1
M106 S255
G1 X-0.4
M106 S0 
G1 X-0.1
M106 S255
G1 X-0.3
M106 S0 
G1 X-0.1
M106 S255
G1 X-0.6
M106 S0 
G1 X-0.1
M106 S255
G1 X-0.3
M106 S0 
G1 X-0.1
M106 S255
G1 X-0.6
M106 S0 
G1 X-0.1
M106 S255
G1 X-0.2
M106 S0 
G1 X-0.1
M106 S255
G1 X-0.2
M106 S0 
G1 X-0.1
M106 S255
G1 X-0.2
M106 S0 
G1 X-0.2
M106 S255
G1 X-0.2
M106 S0 
G1 X-0.1
M106 S255
G1 X-0.1
M106 S0 
G1 X-0.3
M106 S255
G1 X-0.1
M106 S0 
G1 X-0.1
M106 S255
G1 X-0.1
M106 S0 
G1 X-2.2
M106 S255
G1 X-0.1
M106 S0 
G1 X-5
G1 X0.7Y0.1
G1 X5
M106 S255
G1 X0.1
M106 S0 
G1 X0.4
M106 S255
G1 X0.1
M106 S0 
G1 X0.2
M106 S255
G1 X0.1
M106 S0 
G1 X0.1
M106 S255
G1 X0.1
M106 S0 
G1 X0.2
M106 S255
G1 X0.1
M106 S0 
G1 X0.3
M106 S255
G1 X0.1
M106 S0 
G1 X0.1
M106 S255
G1 X0.2
M106 S0 
G1 X0.1
M106 S255
G1 X0.2
M106 S0 
G1 X0.1
M106 S255
G1 X0.3
M106 S0 
G1 X0.1
M106 S255
G1 X0.2
M106 S0 
G1 X0.1
M106 S255
G1 X0.2
M106 S0 
G1 X0.1
M106 S255
G1 X0.2
M106 S0 
G1 X0.1
M106 S255
G1 X0.2
M106 S0 
G1 X0.1
M106 S255
G1 X0.3
M106 S0 
G1 X0.1
M106 S255
G1 X0.3
M106 S0 
G1 X0.1
M106 S255
G1 X0.2
M106 S0 
G1 X0.1
M106 S255
G1 X0.7
M106 S0 
G1 X0.1
M106 S255
G1 X0.5
M106 S0 
G1 X0.1
M106 S255
G1 X0.2
M106 S0 
G1 X0.1
M106 S255
G1 X1.3
M106 S0 
G1 X0.1
M106 S255
G1 X1.2
M106 S0 
G1 X0.1
M106 S255
G1 X2
M106 S0 
G1 X0.1
M106 S255
G1 X2.6
M106 S0 
G1 X0.1
M106 S255
G1 X0.4
M106 S0 
G1 X0.1
M106 S255
G1 X0.1
M106 S0 
G1 X0.1
M106 S255
G1 X0.7
M106 S0 
G1 X0.1
M106 S255
G1 X0.2
M106 S0 
G1 X0.1
M106 S255
G1 X0.6
M106 S0 
G1 X0.1
M106 S255
G1 X0.4
M106 S0 
G1 X0.1
M106 S255
G1 X0.3
M106 S0 
G1 X0.1
M106 S255
G1 X0.3
M106 S0 
G1 X0.1
M106 S255
G1 X0.9
M106 S0 
G1 X0.1
M106 S255
G1 X1.4
M106 S0 
G1 X0.1
M106 S255
G1 X0.2
M106 S0 
G1 X0.1
M106 S255
G1 X0.2
M106 S0 
G1 X0.1
M106 S255
G1 X0.4
M106 S0 
G1 X0.1
M106 S255
G1 X0.2
M106 S0 
G1 X0.1
M106 S255
G1 X0.2
M106 S0 
G1 X0.1
M106 S255
G1 X0.2
M106 S0 
G1 X0.1
M106 S255
G1 X0.2
M106 S0 
G1 X0.1
M106 S255
G1 X0.1
M106 S0 
G1 X0.2
M106 S255
G1 X0.1
M106 S0 
G1 X0.1
M106 S255
G1 X0.1
M106 S0 
G1 X0.2
M106 S255
G1 X0.1
M106 S0 
G1 X0.1
M106 S255
G1 X0.1
M106 S0 
G1 X0.1
M106 S255
G1 X0.1
M106 S0 
G1 X0.1
M106 S255
G1 X0.1
M106 S0 
G1 X0.2
M106 S255
G1 X0.1
M106 S0 
G1 X0.2
M106 S255
G1 X0.1
M106 S0 
G1 X0.2
M106 S255
G1 X0.1
M106 S0 
G1 X0.2
M106 S255
G1 X0.1
M106 S0 
G1 X0.3
M106 S255
G1 X0.1
M106 S0 
G1 X0.2
M106 S255
G1 X0.1
M106 S0 
G1 X0.4
M106 S255
G1 X0.1
M106 S0 
G1 X0.2
M106 S255
G1 X0.1
M106 S0 
G1 X0.7
M106 S255
G1 X0.1
M106 S0 
G1 X5
G1 X-0.3Y0.1
G1 X-5
M106 S255
G1 X-0.1
M106 S0 
G1 X-0.2
M106 S255
G1 X-0.1
M106 S0 
G1 X-0.7
M106 S255
G1 X-0.1
M106 S0 
G1 X-0.2
M106 S255
G1 X-0.1
M106 S0 
G1 X-0.4
M106 S255
G1 X-0.1
M106 S0 
G1 X-0.2
M106 S255
G1 X-0.1
M106 S0 
G1 X-0.2
M106 S255
G1 X-0.1
M106 S0 
G1 X-0.1
M106 S255
G1 X-0.1
M106 S0 
G1 X-0.1
M106 S255
G1 X-0.1
M106 S0 
G1 X-0.1
M106 S255
G1 X-0.1
M106 S0 
G1 X-0.1
M106 S255
G1 X-0.1
M106 S0 
G1 X-0.1
M106 S255
G1 X-0.1
M106 S0 
G1 X-0.1
M106 S255
G1 X-0.1
M106 S0 
G1 X-0.1
M106 S255
G1 X-0.2
M106 S0 
G1 X-0.1
M106 S255
G1 X-0.2
M106 S0 
G1 X-0.1
M106 S255
G1 X-0.3
M106 S0 
G1 X-0.1
M106 S255
G1 X-0.1
M106 S0 
G1 X-0.1
M106 S255
G1 X-0.1
M106 S0 
G1 X-0.1
M106 S255
G1 X-0.2
M106 S0 
G1 X-0.1
M106 S255
G1 X-0.2
M106 S0 
G1 X-0.1
M106 S255
G1 X-0.1
M106 S0 
G1 X-0.1
M106 S255
G1 X-0.2
M106 S0 
G1 X-0.1
M106 S255
G1 X-0.9
M106 S0 
G1 X-0.1
M106 S255
G1 X-0.2
M106 S0 
G1 X-0.1
M106 S255
G1 X-0.2
M106 S0 
G1 X-0.1
M106 S255
G1 X-0.2
M106 S0 
G1 X-0.1
M106 S255
G1 X-0.7
M106 S0 
G1 X-0.1
M106 S255
G1 X-0.2
M106 S0 
G1 X-0.1
M106 S255
G1 X-1.2
M106 S0 
G1 X-0.1
M106 S255
G1 X-0.5
M106 S0 
G1 X-0.1
M106 S255
G1 X-0.8
M106 S0 
G1 X-0.1
M106 S255
G1 X-0.3
M106 S0 
G1 X-0.1
M106 S255
G1 X-1
M106 S0 
G1 X-0.1
M106 S255
G1 X-0.2
M106 S0 
G1 X-0.1
M106 S255
G1 X-0.2
M106 S0 
G1 X-0.1
M106 S255
G1 X-0.2
M106 S0 
G1 X-0.1
M106 S255
G1 X-1.1
M106 S0 
G1 X-0.1
M106 S255
G1 X-0.5
M106 S0 
G1 X-0.1
M106 S255
G1 X-0.2
M106 S0 
G1 X-0.1
M106 S255
G1 X-0.2
M106 S0 
G1 X-0.1
M106 S255
G1 X-0.3
M106 S0 
G1 X-0.1
M106 S255
G1 X-0.2
M106 S0 
G1 X-0.1
M106 S255
G1 X-0.2
M106 S0 
G1 X-0.1
M106 S255
G1 X-0.5
M106 S0 
G1 X-0.1
M106 S255
G1 X-0.2
M106 S0 
G1 X-0.1
M106 S255
G1 X-0.2
M106 S0 
G1 X-0.1
M106 S255
G1 X-0.5
M106 S0 
G1 X-0.1
M106 S255
G1 X-0.1
M106 S0 
G1 X-0.1
M106 S255
G1 X-0.1
M106 S0 
G1 X-0.1
M106 S255
G1 X-0.2
M106 S0 
G1 X-0.1
M106 S255
G1 X-0.5
M106 S0 
G1 X-0.1
M106 S255
G1 X-0.3
M106 S0 
G1 X-0.1
M106 S255
G1 X-0.1
M106 S0 
G1 X-0.1
M106 S255
G1 X-0.3
M106 S0 
G1 X-0.1
M106 S255
G1 X-0.2
M106 S0 
G1 X-0.1
M106 S255
G1 X-0.2
M106 S0 
G1 X-0.1
M106 S255
G1 X-0.4
M106 S0 
G1 X-0.1
M106 S255
G1 X-0.3
M106 S0 
G1 X-0.1
M106 S255
G1 X-1.8
M106 S0 
G1 X-0.1
M106 S255
G1 X-0.3
M106 S0 
G1 X-0.2
M106 S255
G1 X-0.1
M106 S0 
G1 X-0.1
M106 S255
G1 X-0.1
M106 S0 
G1 X-0.2
M106 S255
G1 X-0.1
M106 S0 
G1 X-5
G1 X-1.4Y0.1
G1 X5
M106 S255
G1 X0.1
M106 S0 
G1 X0.5
M106 S255
G1 X0.1
M106 S0 
G1 X0.2
M106 S255
G1 X0.1
M106 S0 
G1 X0.2
M106 S255
G1 X0.1
M106 S0 
G1 X0.2
M106 S255
G1 X0.1
M106 S0 
G1 X0.1
M106 S255
G1 X0.2
M106 S0 
G1 X0.1
M106 S255
G1 X0.2
M106 S0 
G1 X0.1
M106 S255
G1 X0.5
M106 S0 
G1 X0.1
M106 S255
G1 X0.3
M106 S0 
G1 X0.1
M106 S255
G1 X0.2
M106 S0 
G1 X0.1
M106 S255
G1 X0.1
M106 S0 
G1 X0.1
M106 S255
G1 X0.2
M106 S0 
G1 X0.1
M106 S255
G1 X0.4
M106 S0 
G1 X0.1
M106 S255
G1 X0.3
M106 S0 
G1 X0.1
M106 S255
G1 X0.7
M106 S0 
G1 X0.1
M106 S255
G1 X0.8
M106 S0 
G1 X0.1
M106 S255
G1 X0.5
M106 S0 
G1 X0.1
M106 S255
G1 X0.3
M106 S0 
G1 X0.1
M106 S255
G1 X0.7
M106 S0 
G1 X0.1
M106 S255
G1 X1.2
M106 S0 
G1 X0.1
M106 S255
G1 X2.1
M106 S0 
G1 X0.1
M106 S255
G1 X0.4
M106 S0 
G1 X0.1
M106 S255
G1 X0.2
M106 S0 
G1 X0.1
M106 S255
G1 X0.3
M106 S0 
G1 X0.1
M106 S255
G1 X1.5
M106 S0 
G1 X0.1
M106 S255
G1 X0.2
M106 S0 
G1 X0.1
M106 S255
G1 X0.5
M106 S0 
G1 X0.1
M106 S255
G1 X0.4
M106 S0 
G1 X0.1
M106 S255
G1 X0.2
M106 S0 
G1 X0.1
M106 S255
G1 X0.3
M106 S0 
G1 X0.1
M106 S255
G1 X0.3
M106 S0 
G1 X0.1
M106 S255
G1 X0.2
M106 S0 
G1 X0.1
M106 S255
G1 X0.2
M106 S0 
G1 X0.1
M106 S255
G1 X0.2
M106 S0 
G1 X0.1
M106 S255
G1 X0.3
M106 S0 
G1 X0.1
M106 S255
G1 X0.4
M106 S0 
G1 X0.1
M106 S255
G1 X0.1
M106 S0 
G1 X0.1
M106 S255
G1 X0.2
M106 S0 
G1 X0.1
M106 S255
G1 X2.2
M106 S0 
G1 X0.1
M106 S255
G1 X0.3
M106 S0 
G1 X0.1
M106 S255
G1 X0.2
M106 S0 
G1 X0.1
M106 S255
G1 X0.2
M106 S0 
G1 X0.1
M106 S255
G1 X0.2
M106 S0 
G1 X0.1
M106 S255
G1 X0.1
M106 S0 
G1 X0.1
M106 S255
G1 X0.2
M106 S0 
G1 X0.2
M106 S255
G1 X0.1
M106 S0 
G1 X0.2
M106 S255
G1 X0.1
M106 S0 
G1 X0.1
M106 S255
G1 X0.1
M106 S0 
G1 X0.2
M106 S255
G1 X0.1
M106 S0 
G1 X0.2
M106 S255
G1 X0.1
M106 S0 
G1 X0.1
M106 S255
G1 X0.1
M106 S0 
G1 X0.2
M106 S255
G1 X0.1
M106 S0 
G1 X0.1
M106 S255
G1 X0.1
M106 S0 
G1 X0.2
M106 S255
G1 X0.1
M106 S0 
G1 X0.1
M106 S255
G1 X0.2
M106 S0 
G1 X0.2
M106 S255
G1 X0.1
M106 S0 
G1 X0.3
M106 S255
G1 X0.1
M106 S0 
G1 X0.2
M106 S255
G1 X0.1
M106 S0 
G1 X5
G1 X1.2Y0.1
G1 X-5
M106 S255
G1 X-0.1
M106 S0 
G1 X-0.5
M106 S255
G1 X-0.1
M106 S0 
G1 X-0.2
M106 S255
G1 X-0.1
M106 S0 
G1 X-0.2
M106 S255
G1 X-0.1
M106 S0 
G1 X-0.2
M106 S255
G1 X-0.1
M106 S0 
G1 X-0.2
M106 S255
G1 X-0.1
M106 S0 
G1 X-0.2
M106 S255
G1 X-0.1
M106 S0 
G1 X-0.5
M106 S255
G1 X-0.1
M106 S0 
G1 X-0.1
M106 S255
G1 X-0.1
M106 S0 
G1 X-0.1
M106 S255
G1 X-0.1
M106 S0 
G1 X-0.2
M106 S255
G1 X-0.1
M106 S0 
G1 X-0.2
M106 S255
G1 X-0.1
M106 S0 
G1 X-0.1
M106 S255
G1 X-0.2
M106 S0 
G1 X-0.1
M106 S255
G1 X-0.1
M106 S0 
G1 X-0.1
M106 S255
G1 X-0.1
M106 S0 
G1 X-0.1
M106 S255
G1 X-0.2
M106 S0 
G1 X-0.1
M106 S255
G1 X-0.1
M106 S0 
G1 X-0.1
M106 S255
G1 X-0.1
M106 S0 
G1 X-0.1
M106 S255
G1 X-0.1
M106 S0 
G1 X-0.1
M106 S255
G1 X-0.2
M106 S0 
G1 X-0.1
M106 S255
G1 X-0.2
M106 S0 
G1 X-0.1
M106 S255
G1 X-0.2
M106 S0 
G1 X-0.1
M106 S255
G1 X-0.7
M106 S0 
G1 X-0.1
M106 S255
G1 X-0.2
M106 S0 
G1 X-0.1
M106 S255
G1 X-0.2
M106 S0 
G1 X-0.1
M106 S255
G1 X-0.5
M106 S0 
G1 X-0.1
M106 S255
G1 X-0.6
M106 S0 
G1 X-0.1
M106 S255
G1 X-0.5
M106 S0 
G1 X-0.1
M106 S255
G1 X-0.5
M106 S0 
G1 X-0.1
M106 S255
G1 X-0.4
M106 S0 
G1 X-0.1
M106 S255
G1 X-0.6
M106 S0 
G1 X-0.1
M106 S255
G1 X-1.8
M106 S0 
G1 X-0.1
M106 S255
G1 X-0.6
M106 S0 
G1 X-0.1
M106 S255
G1 X-2.7
M106 S0 
G1 X-0.1
M106 S255
G1 X-0.2
M106 S0 
G1 X-0.1
M106 S255
G1 X-0.2
M106 S0 
G1 X-0.1
M106 S255
G1 X-0.2
M106 S0 
G1 X-0.1
M106 S255
G1 X-0.4
M106 S0 
G1 X-0.1
M106 S255
G1 X-1.2
M106 S0 
G1 X-0.1
M106 S255
G1 X-0.2
M106 S0 
G1 X-0.1
M106 S255
G1 X-0.4
M106 S0 
G1 X-0.1
M106 S255
G1 X-0.9
M106 S0 
G1 X-0.1
M106 S255
G1 X-0.2
M106 S0 
G1 X-0.1
M106 S255
G1 X-0.3
M106 S0 
G1 X-0.1
M106 S255
G1 X-0.2
M106 S0 
G1 X-0.1
M106 S255
G1 X-0.1
M106 S0 
G1 X-0.1
M106 S255
G1 X-0.4
M106 S0 
G1 X-0.1
M106 S255
G1 X-0.2
M106 S0 
G1 X-0.1
M106 S255
G1 X-0.3
M106 S0 
G1 X-0.1
M106 S255
G1 X-0.4
M106 S0 
G1 X-0.1
M106 S255
G1 X-0.2
M106 S0 
G1 X-0.1
M106 S255
G1 X-0.2
M106 S0 
G1 X-0.1
M106 S255
G1 X-0.3
M106 S0 
G1 X-0.1
M106 S255
G1 X-0.2
M106 S0 
G1 X-0.1
M106 S255
G1 X-0.2
M106 S0 
G1 X-0.1
M106 S255
G1 X-0.2
M106 S0 
G1 X-0.1
M106 S255
G1 X-0.5
M106 S0 
G1 X-0.1
M106 S255
G1 X-0.2
M106 S0 
G1 X-0.1
M106 S255
G1 X-0.2
M106 S0 
G1 X-0.1
M106 S255
G1 X-0.1
M106 S0 
G1 X-0.6
M106 S255
G1 X-0.1
M106 S0 
G1 X-0.6
M106 S255
G1 X-0.1
M106 S0 
G1 X-0.2
M106 S255
G1 X-0.1
M106 S0 
G1 X-5
G1 X0.9Y0.1
G1 X5
M106 S255
G1 X0.1
M106 S0 
G1 X0.2
M106 S255
G1 X0.1
M106 S0 
G1 X0.1
M106 S255
G1 X0.1
M106 S0 
G1 X0.1
M106 S255
G1 X0.1
M106 S0 
G1 X0.1
M106 S255
G1 X0.1
M106 S0 
G1 X0.1
M106 S255
G1 X0.2
M106 S0 
G1 X0.1
M106 S255
G1 X0.3
M106 S0 
G1 X0.1
M106 S255
G1 X0.5
M106 S0 
G1 X0.1
M106 S255
G1 X0.4
M106 S0 
G1 X0.1
M106 S255
G1 X0.2
M106 S0 
G1 X0.1
M106 S255
G1 X0.7
M106 S0 
G1 X0.1
M106 S255
G1 X0.2
M106 S0 
G1 X0.1
M106 S255
G1 X0.5
M106 S0 
G1 X0.1
M106 S255
G1 X0.2
M106 S0 
G1 X0.1
M106 S255
G1 X0.2
M106 S0 
G1 X0.1
M106 S255
G1 X0.5
M106 S0 
G1 X0.1
M106 S255
G1 X0.4
M106 S0 
G1 X0.1
M106 S255
G1 X0.2
M106 S0 
G1 X0.1
M106 S255
G1 X0.2
M106 S0 
G1 X0.1
M106 S255
G1 X0.1
M106 S0 
G1 X0.1
M106 S255
G1 X0.2
M106 S0 
G1 X0.1
M106 S255
G1 X0.8
M106 S0 
G1 X0.1
M106 S255
G1 X0.4
M106 S0 
G1 X0.1
M106 S255
G1 X0.1
M106 S0 
G1 X0.1
M106 S255
G1 X0.3
M106 S0 
G1 X0.1
M106 S255
G1 X0.5
M106 S0 
G1 X0.1
M106 S255
G1 X1.5
M106 S0 
G1 X0.1
M106 S255
G1 X0.2
M106 S0 
G1 X0.1
M106 S255
G1 X0.2
M106 S0 
G1 X0.1
M106 S255
G1 X0.7
M106 S0 
G1 X0.1
M106 S255
G1 X0.2
M106 S0 
G1 X0.1
M106 S255
G1 X0.2
M106 S0 
G1 X0.1
M106 S255
G1 X0.7
M106 S0 
G1 X0.1
M106 S255
G1 X0.4
M106 S0 
G1 X0.1
M106 S255
G1 X0.3
M106 S0 
G1 X0.1
M106 S255
G1 X0.2
M106 S0 
G1 X0.1
M106 S255
G1 X0.2
M106 S0 
G1 X0.1
M106 S255
G1 X0.2
M106 S0 
G1 X0.1
M106 S255
G1 X0.6
M106 S0 
G1 X0.1
M106 S255
G1 X0.5
M106 S0 
G1 X0.1
M106 S255
G1 X0.4
M106 S0 
G1 X0.1
M106 S255
G1 X0.2
M106 S0 
G1 X0.1
M106 S255
G1 X0.9
M106 S0 
G1 X0.1
M106 S255
G1 X0.5
M106 S0 
G1 X0.1
M106 S255
G1 X1
M106 S0 
G1 X0.1
M106 S255
G1 X0.2
M106 S0 
G1 X0.1
M106 S255
G1 X0.5
M106 S0 
G1 X0.1
M106 S255
G1 X0.2
M106 S0 
G1 X0.1
M106 S255
G1 X0.2
M106 S0 
G1 X0.1
M106 S255
G1 X0.3
M106 S0 
G1 X0.1
M106 S255
G1 X0.1
M106 S0 
G1 X0.1
M106 S255
G1 X0.2
M106 S0 
G1 X0.1
M106 S255
G1 X0.1
M106 S0 
G1 X0.1
M106 S255
G1 X0.1
M106 S0 
G1 X0.1
M106 S255
G1 X0.1
M106 S0 
G1 X0.2
M106 S255
G1 X0.1
M106 S0 
G1 X0.1
M106 S255
G1 X0.1
M106 S0 
G1 X0.1
M106 S255
G1 X0.1
M106 S0 
G1 X0.1
M106 S255
G1 X0.1
M106 S0 
G1 X0.2
M106 S255
G1 X0.1
M106 S0 
G1 X0.2
M106 S255
G1 X0.2
M106 S0 
G1 X0.1
M106 S255
G1 X0.1
M106 S0 
G1 X0.2
M106 S255
G1 X0.1
M106 S0 
G1 X0.2
M106 S255
G1 X0.1
M106 S0 
G1 X0.2
M106 S255
G1 X0.1
M106 S0 
G1 X0.3
M106 S255
G1 X0.1
M106 S0 
G1 X0.2
M106 S255
G1 X0.1
M106 S0 
G1 X0.3
M106 S255
G1 X0.1
M106 S0 
G1 X5
G1 X-1Y0.1
G1 X-5
M106 S255
G1 X-0.1
M106 S0 
G1 X-0.2
M106 S255
G1 X-0.1
M106 S0 
G1 X-0.2
M106 S255
G1 X-0.1
M106 S0 
G1 X-0.2
M106 S255
G1 X-0.1
M106 S0 
G1 X-0.2
M106 S255
G1 X-0.1
M106 S0 
G1 X-0.2
M106 S255
G1 X-0.1
M106 S0 
G1 X-0.2
M106 S255
G1 X-0.1
M106 S0 
G1 X-0.1
M106 S255
G1 X-0.1
M106 S0 
G1 X-0.2
M106 S255
G1 X-0.1
M106 S0 
G1 X-0.2
M106 S255
G1 X-0.1
M106 S0 
G1 X-0.1
M106 S255
G1 X-0.1
M106 S0 
G1 X-0.1
M106 S255
G1 X-0.2
M106 S0 
G1 X-0.1
M106 S255
G1 X-0.1
M106 S0 
G1 X-0.1
M106 S255
G1 X-0.1
M106 S0 
G1 X-0.1
M106 S255
G1 X-0.2
M106 S0 
G1 X-0.1
M106 S255
G1 X-0.1
M106 S0 
G1 X-0.1
M106 S255
G1 X-0.2
M106 S0 
G1 X-0.1
M106 S255
G1 X-0.1
M106 S0 
G1 X-0.1
M106 S255
G1 X-0.2
M106 S0 
G1 X-0.1
M106 S255
G1 X-0.2
M106 S0 
G1 X-0.1
M106 S255
G1 X-0.7
M106 S0 
G1 X-0.1
M106 S255
G1 X-0.4
M106 S0 
G1 X-0.1
M106 S255
G1 X-0.6
M106 S0 
G1 X-0.1
M106 S255
G1 X-0.6
M106 S0 
G1 X-0.1
M106 S255
G1 X-0.1
M106 S0 
G1 X-0.1
M106 S255
G1 X-0.8
M106 S0 
G1 X-0.1
M106 S255
G1 X-0.2
M106 S0 
G1 X-0.1
M106 S255
G1 X-0.3
M106 S0 
G1 X-0.1
M106 S255
G1 X-0.3
M106 S0 
G1 X-0.1
M106 S255
G1 X-0.2
M106 S0 
G1 X-0.1
M106 S255
G1 X-1.2
M106 S0 
G1 X-0.1
M106 S255
G1 X-0.7
M106 S0 
G1 X-0.1
M106 S255
G1 X-0.3
M106 S0 
G1 X-0.1
M106 S255
G1 X-1
M106 S0 
G1 X-0.1
M106 S255
G1 X-0.2
M106 S0 
G1 X-0.1
M106 S255
G1 X-1
M106 S0 
G1 X-0.1
M106 S255
G1 X-0.2
M106 S0 
G1 X-0.1
M106 S255
G1 X-0.4
M106 S0 
G1 X-0.1
M106 S255
G1 X-0.7
M106 S0 
G1 X-0.1
M106 S255
G1 X-0.5
M106 S0 
G1 X-0.1
M106 S255
G1 X-0.4
M106 S0 
G1 X-0.1
M106 S255
G1 X-0.6
M106 S0 
G1 X-0.1
M106 S255
G1 X-0.2
M106 S0 
G1 X-0.1
M106 S255
G1 X-0.2
M106 S0 
G1 X-0.1
M106 S255
G1 X-1.1
M106 S0 
G1 X-0.1
M106 S255
G1 X-0.4
M106 S0 
G1 X-0.1
M106 S255
G1 X-0.2
M106 S0 
G1 X-0.1
M106 S255
G1 X-0.8
M106 S0 
G1 X-0.1
M106 S255
G1 X-0.1
M106 S0 
G1 X-0.1
M106 S255
G1 X-0.2
M106 S0 
G1 X-0.1
M106 S255
G1 X-0.4
M106 S0 
G1 X-0.1
M106 S255
G1 X-0.1
M106 S0 
G1 X-0.1
M106 S255
G1 X-0.1
M106 S0 
G1 X-0.1
M106 S255
G1 X-0.6
M106 S0 
G1 X-0.1
M106 S255
G1 X-0.5
M106 S0 
G1 X-0.1
M106 S255
G1 X-0.2
M106 S0 
G1 X-0.1
M106 S255
G1 X-0.4
M106 S0 
G1 X-0.1
M106 S255
G1 X-0.6
M106 S0 
G1 X-0.1
M106 S255
G1 X-0.1
M106 S0 
G1 X-0.5
M106 S255
G1 X-0.1
M106 S0 
G1 X-5
G1 X-0.9Y0.1
G1 X5
M106 S255
G1 X0.1
M106 S0 
G1 X0.6
M106 S255
G1 X0.1
M106 S0 
G1 X0.2
M106 S255
G1 X0.1
M106 S0 
G1 X0.1
M106 S255
G1 X0.1
M106 S0 
G1 X0.1
M106 S255
G1 X0.1
M106 S0 
G1 X0.1
M106 S255
G1 X0.1
M106 S0 
G1 X0.1
M106 S255
G1 X0.2
M106 S0 
G1 X0.1
M106 S255
G1 X0.5
M106 S0 
G1 X0.1
M106 S255
G1 X0.5
M106 S0 
G1 X0.1
M106 S255
G1 X0.1
M106 S0 
G1 X0.1
M106 S255
G1 X0.2
M106 S0 
G1 X0.1
M106 S255
G1 X0.1
M106 S0 
G1 X0.1
M106 S255
G1 X0.1
M106 S0 
G1 X0.1
M106 S255
G1 X0.5
M106 S0 
G1 X0.1
M106 S255
G1 X0.2
M106 S0 
G1 X0.1
M106 S255
G1 X0.4
M106 S0 
G1 X0.1
M106 S255
G1 X0.3
M106 S0 
G1 X0.1
M106 S255
G1 X0.2
M106 S0 
G1 X0.1
M106 S255
G1 X0.1
M106 S0 
G1 X0.1
M106 S255
G1 X0.4
M106 S0 
G1 X0.1
M106 S255
G1 X0.3
M106 S0 
G1 X0.1
M106 S255
G1 X0.4
M106 S0 
G1 X0.1
M106 S255
G1 X0.2
M106 S0 
G1 X0.1
M106 S255
G1 X0.2
M106 S0 
G1 X0.1
M106 S255
G1 X0.7
M106 S0 
G1 X0.1
M106 S255
G1 X0.2
M106 S0 
G1 X0.1
M106 S255
G1 X0.2
M106 S0 
G1 X0.1
M106 S255
G1 X0.4
M106 S0 
G1 X0.1
M106 S255
G1 X1.3
M106 S0 
G1 X0.1
M106 S255
G1 X0.4
M106 S0 
G1 X0.1
M106 S255
G1 X0.7
M106 S0 
G1 X0.1
M106 S255
G1 X0.2
M106 S0 
G1 X0.1
M106 S255
G1 X0.2
M106 S0 
G1 X0.1
M106 S255
G1 X2.2
M106 S0 
G1 X0.1
M106 S255
G1 X0.2
M106 S0 
G1 X0.1
M106 S255
G1 X0.4
M106 S0 
G1 X0.1
M106 S255
G1 X0.2
M106 S0 
G1 X0.1
M106 S255
G1 X0.2
M106 S0 
G1 X0.1
M106 S255
G1 X0.7
M106 S0 
G1 X0.1
M106 S255
G1 X0.4
M106 S0 
G1 X0.1
M106 S255
G1 X0.6
M106 S0 
G1 X0.1
M106 S255
G1 X0.2
M106 S0 
G1 X0.1
M106 S255
G1 X0.6
M106 S0 
G1 X0.1
M106 S255
G1 X0.1
M106 S0 
G1 X0.1
M106 S255
G1 X0.6
M106 S0 
G1 X0.1
M106 S255
G1 X0.6
M106 S0 
G1 X0.1
M106 S255
G1 X0.6
M106 S0 
G1 X0.1
M106 S255
G1 X0.7
M106 S0 
G1 X0.1
M106 S255
G1 X0.2
M106 S0 
G1 X0.1
M106 S255
G1 X0.1
M106 S0 
G1 X0.1
M106 S255
G1 X0.2
M106 S0 
G1 X0.1
M106 S255
G1 X0.2
M106 S0 
G1 X0.1
M106 S255
G1 X0.1
M106 S0 
G1 X0.1
M106 S255
G1 X0.1
M106 S0 
G1 X0.1
M106 S255
G1 X0.1
M106 S0 
G1 X0.1
M106 S255
G1 X0.1
M106 S0 
G1 X0.1
M106 S255
G1 X0.1
M106 S0 
G1 X0.1
M106 S255
G1 X0.2
M106 S0 
G1 X0.1
M106 S255
G1 X0.1
M106 S0 
G1 X0.1
M106 S255
G1 X0.1
M106 S0 
G1 X0.1
M106 S255
G1 X0.2
M106 S0 
G1 X0.1
M106 S255
G1 X0.1
M106 S0 
G1 X0.1
M106 S255
G1 X0.1
M106 S0 
G1 X0.2
M106 S255
G1 X0.1
M106 S0 
G1 X0.1
M106 S255
G1 X0.1
M106 S0 
G1 X0.1
M106 S255
G1 X0.1
M106 S0 
G1 X0.2
M106 S255
G1 X0.1
M106 S0 
G1 X0.3
M106 S255
G1 X0.1
M106 S0 
G1 X0.1
M106 S255
G1 X0.1
M106 S0 
G1 X0.1
M106 S255
G1 X0.1
M106 S0 
G1 X0.1
M106 S255
G1 X0.1
M106 S0 
G1 X0.7
M106 S255
G1 X0.1
M106 S0 
G1 X5
G1 X-0.4Y0.1
G1 X-5
M106 S255
G1 X-0.1
M106 S0 
G1 X-0.1
M106 S255
G1 X-0.1
M106 S0 
G1 X-0.2
M106 S255
G1 X-0.1
M106 S0 
G1 X-0.3
M106 S255
G1 X-0.1
M106 S0 
G1 X-0.3
M106 S255
G1 X-0.1
M106 S0 
G1 X-0.2
M106 S255
G1 X-0.1
M106 S0 
G1 X-0.1
M106 S255
G1 X-0.1
M106 S0 
G1 X-0.1
M106 S255
G1 X-0.1
M106 S0 
G1 X-0.2
M106 S255
G1 X-0.1
M106 S0 
G1 X-0.1
M106 S255
G1 X-0.1
M106 S0 
G1 X-0.2
M106 S255
G1 X-0.1
M106 S0 
G1 X-0.3
M106 S255
G1 X-0.1
M106 S0 
G1 X-0.1
M106 S255
G1 X-0.1
M106 S0 
G1 X-0.2
M106 S255
G1 X-0.1
M106 S0 
G1 X-0.1
M106 S255
G1 X-0.1
M106 S0 
G1 X-0.1
M106 S255
G1 X-0.1
M106 S0 
G1 X-0.1
M106 S255
G1 X-0.1
M106 S0 
G1 X-0.1
M106 S255
G1 X-0.1
M106 S0 
G1 X-0.1
M106 S255
G1 X-0.2
M106 S0 
G1 X-0.1
M106 S255
G1 X-0.2
M106 S0 
G1 X-0.1
M106 S255
G1 X-0.3
M106 S0 
G1 X-0.1
M106 S255
G1 X-0.5
M106 S0 
G1 X-0.1
M106 S255
G1 X-0.6
M106 S0 
G1 X-0.1
M106 S255
G1 X-0.7
M106 S0 
G1 X-0.1
M106 S255
G1 X-0.7
M106 S0 
G1 X-0.1
M106 S255
G1 X-0.6
M106 S0 
G1 X-0.1
M106 S255
G1 X-0.2
M106 S0 
G1 X-0.1
M106 S255
G1 X-0.2
M106 S0 
G1 X-0.1
M106 S255
G1 X-0.4
M106 S0 
G1 X-0.1
M106 S255
G1 X-0.3
M106 S0 
G1 X-0.1
M106 S255
G1 X-0.7
M106 S0 
G1 X-0.1
M106 S255
G1 X-0.2
M106 S0 
G1 X-0.1
M106 S255
G1 X-1.8
M106 S0 
G1 X-0.1
M106 S255
G1 X-0.3
M106 S0 
G1 X-0.1
M106 S255
G1 X-0.2
M106 S0 
G1 X-0.1
M106 S255
G1 X-0.2
M106 S0 
G1 X-0.1
M106 S255
G1 X-0.5
M106 S0 
G1 X-0.1
M106 S255
G1 X-2.5
M106 S0 
G1 X-0.1
M106 S255
G1 X-0.4
M106 S0 
G1 X-0.1
M106 S255
G1 X-0.1
M106 S0 
G1 X-0.1
M106 S255
G1 X-0.3
M106 S0 
G1 X-0.1
M106 S255
G1 X-0.2
M106 S0 
G1 X-0.1
M106 S255
G1 X-0.2
M106 S0 
G1 X-0.1
M106 S255
G1 X-0.6
M106 S0 
G1 X-0.1
M106 S255
G1 X-0.2
M106 S0 
G1 X-0.1
M106 S255
G1 X-0.2
M106 S0 
G1 X-0.1
M106 S255
G1 X-0.3
M106 S0 
G1 X-0.1
M106 S255
G1 X-0.3
M106 S0 
G1 X-0.1
M106 S255
G1 X-0.2
M106 S0 
G1 X-0.1
M106 S255
G1 X-0.3
M106 S0 
G1 X-0.1
M106 S255
G1 X-0.2
M106 S0 
G1 X-0.1
M106 S255
G1 X-0.4
M106 S0 
G1 X-0.1
M106 S255
G1 X-0.7
M106 S0 
G1 X-0.1
M106 S255
G1 X-0.2
M106 S0 
G1 X-0.1
M106 S255
G1 X-0.5
M106 S0 
G1 X-0.1
M106 S255
G1 X-0.2
M106 S0 
G1 X-0.1
M106 S255
G1 X-0.4
M106 S0 
G1 X-0.1
M106 S255
G1 X-0.5
M106 S0 
G1 X-0.1
M106 S255
G1 X-0.5
M106 S0 
G1 X-0.1
M106 S255
G1 X-0.4
M106 S0 
G1 X-0.1
M106 S255
G1 X-0.7
M106 S0 
G1 X-0.1
M106 S255
G1 X-0.1
M106 S0 
G1 X-0.4
M106 S255
G1 X-0.1
M106 S0 
G1 X-5
G1 X0.1Y0.1
G1 X5
M106 S255
G1 X0.1
M106 S0 
G1 X0.1
M106 S255
G1 X0.1
M106 S0 
G1 X0.2
M106 S255
G1 X1.1
M106 S0 
G1 X0.1
M106 S255
G1 X0.3
M106 S0 
G1 X0.1
M106 S255
G1 X0.2
M106 S0 
G1 X0.1
M106 S255
G1 X0.2
M106 S0 
G1 X0.1
M106 S255
G1 X0.2
M106 S0 
G1 X0.1
M106 S255
G1 X0.3
M106 S0 
G1 X0.1
M106 S255
G1 X0.5
M106 S0 
G1 X0.1
M106 S255
G1 X0.1
M106 S0 
G1 X0.1
M106 S255
G1 X0.6
M106 S0 
G1 X0.1
M106 S255
G1 X0.2
M106 S0 
G1 X0.1
M106 S255
G1 X0.1
M106 S0 
G1 X0.1
M106 S255
G1 X0.3
M106 S0 
G1 X0.1
M106 S255
G1 X0.3
M106 S0 
G1 X0.1
M106 S255
G1 X0.3
M106 S0 
G1 X0.1
M106 S255
G1 X0.5
M106 S0 
G1 X0.1
M106 S255
G1 X0.5
M106 S0 
G1 X0.1
M106 S255
G1 X0.7
M106 S0 
G1 X0.1
M106 S255
G1 X0.2
M106 S0 
G1 X0.1
M106 S255
G1 X1.5
M106 S0 
G1 X0.1
M106 S255
G1 X0.2
M106 S0 
G1 X0.1
M106 S255
G1 X0.3
M106 S0 
G1 X0.1
M106 S255
G1 X0.3
M106 S0 
G1 X0.1
M106 S255
G1 X0.3
M106 S0 
G1 X0.1
M106 S255
G1 X0.2
M106 S0 
G1 X0.1
M106 S255
G1 X0.3
M106 S0 
G1 X0.1
M106 S255
G1 X0.3
M106 S0 
G1 X0.1
M106 S255
G1 X0.5
M106 S0 
G1 X0.1
M106 S255
G1 X1.8
M106 S0 
G1 X0.1
M106 S255
G1 X0.3
M106 S0 
G1 X0.1
M106 S255
G1 X0.3
M106 S0 
G1 X0.1
M106 S255
G1 X0.2
M106 S0 
G1 X0.1
M106 S255
G1 X0.7
M106 S0 
G1 X0.1
M106 S255
G1 X0.2
M106 S0 
G1 X0.1
M106 S255
G1 X0.7
M106 S0 
G1 X0.1
M106 S255
G1 X1.1
M106 S0 
G1 X0.1
M106 S255
G1 X0.6
M106 S0 
G1 X0.1
M106 S255
G1 X0.8
M106 S0 
G1 X0.1
M106 S255
G1 X0.8
M106 S0 
G1 X0.1
M106 S255
G1 X0.5
M106 S0 
G1 X0.1
M106 S255
G1 X0.4
M106 S0 
G1 X0.1
M106 S255
G1 X0.2
M106 S0 
G1 X0.1
M106 S255
G1 X0.1
M106 S0 
G1 X0.1
M106 S255
G1 X0.1
M106 S0 
G1 X0.1
M106 S255
G1 X0.2
M106 S0 
G1 X0.1
M106 S255
G1 X0.2
M106 S0 
G1 X0.1
M106 S255
G1 X0.1
M106 S0 
G1 X0.1
M106 S255
G1 X0.1
M106 S0 
G1 X0.1
M106 S255
G1 X0.1
M106 S0 
G1 X0.2
M106 S255
G1 X0.1
M106 S0 
G1 X0.1
M106 S255
G1 X0.2
M106 S0 
G1 X0.2
M106 S255
G1 X0.1
M106 S0 
G1 X0.2
M106 S255
G1 X0.1
M106 S0 
G1 X0.1
M106 S255
G1 X0.1
M106 S0 
G1 X0.2
M106 S255
G1 X0.1
M106 S0 
G1 X0.3
M106 S255
G1 X0.1
M106 S0 
G1 X0.1
M106 S255
G1 X0.1
M106 S0 
G1 X0.1
M106 S255
G1 X0.1
M106 S0 
G1 X0.2
M106 S255
G1 X0.1
M106 S0 
G1 X5
G1 X1Y0.1
G1 X-5
M106 S255
G1 X-0.1
M106 S0 
G1 X-0.2
M106 S255
G1 X-0.1
M106 S0 
G1 X-0.2
M106 S255
G1 X-0.1
M106 S0 
G1 X-0.1
M106 S255
G1 X-0.1
M106 S0 
G1 X-0.1
M106 S255
G1 X-0.1
M106 S0 
G1 X-0.2
M106 S255
G1 X-0.1
M106 S0 
G1 X-0.2
M106 S255
G1 X-0.1
M106 S0 
G1 X-0.1
M106 S255
G1 X-0.1
M106 S0 
G1 X-0.1
M106 S255
G1 X-0.1
M106 S0 
G1 X-0.2
M106 S255
G1 X-0.1
M106 S0 
G1 X-0.1
M106 S255
G1 X-0.1
M106 S0 
G1 X-0.2
M106 S255
G1 X-0.2
M106 S0 
G1 X-0.1
M106 S255
G1 X-0.2
M106 S0 
G1 X-0.2
M106 S255
G1 X-0.1
M106 S0 
G1 X-0.1
M106 S255
G1 X-0.2
M106 S0 
G1 X-0.1
M106 S255
G1 X-0.1
M106 S0 
G1 X-0.1
M106 S255
G1 X-0.1
M106 S0 
G1 X-0.1
M106 S255
G1 X-0.1
M106 S0 
G1 X-0.1
M106 S255
G1 X-0.1
M106 S0 
G1 X-0.1
M106 S255
G1 X-0.1
M106 S0 
G1 X-0.1
M106 S255
G1 X-0.2
M106 S0 
G1 X-0.1
M106 S255
G1 X-0.2
M106 S0 
G1 X-0.1
M106 S255
G1 X-0.1
M106 S0 
G1 X-0.1
M106 S255
G1 X-0.6
M106 S0 
G1 X-0.1
M106 S255
G1 X-0.8
M106 S0 
G1 X-0.1
M106 S255
G1 X-0.6
M106 S0 
G1 X-0.1
M106 S255
G1 X-0.2
M106 S0 
G1 X-0.1
M106 S255
G1 X-0.6
M106 S0 
G1 X-0.1
M106 S255
G1 X-0.3
M106 S0 
G1 X-0.1
M106 S255
G1 X-0.2
M106 S0 
G1 X-0.1
M106 S255
G1 X-0.2
M106 S0 
G1 X-0.1
M106 S255
G1 X-0.2
M106 S0 
G1 X-0.1
M106 S255
G1 X-0.4
M106 S0 
G1 X-0.1
M106 S255
G1 X-0.2
M106 S0 
G1 X-0.1
M106 S255
G1 X-0.6
M106 S0 
G1 X-0.1
M106 S255
G1 X-0.9
M106 S0 
G1 X-0.1
M106 S255
G1 X-0.8
M106 S0 
G1 X-0.1
M106 S255
G1 X-1.2
M106 S0 
G1 X-0.1
M106 S255
G1 X-0.5
M106 S0 
G1 X-0.1
M106 S255
G1 X-0.9
M106 S0 
G1 X-0.1
M106 S255
G1 X-2.1
M106 S0 
G1 X-0.1
M106 S255
G1 X-0.2
M106 S0 
G1 X-0.1
M106 S255
G1 X-0.2
M106 S0 
G1 X-0.1
M106 S255
G1 X-0.2
M106 S0 
G1 X-0.1
M106 S255
G1 X-0.2
M106 S0 
G1 X-0.1
M106 S255
G1 X-0.5
M106 S0 
G1 X-0.1
M106 S255
G1 X-0.2
M106 S0 
G1 X-0.1
M106 S255
G1 X-0.4
M106 S0 
G1 X-0.1
M106 S255
G1 X-0.2
M106 S0 
G1 X-0.1
M106 S255
G1 X-0.2
M106 S0 
G1 X-0.1
M106 S255
G1 X-0.2
M106 S0 
G1 X-0.1
M106 S255
G1 X-0.3
M106 S0 
G1 X-0.1
M106 S255
G1 X-0.3
M106 S0 
G1 X-0.1
M106 S255
G1 X-0.3
M106 S0 
G1 X-0.1
M106 S255
G1 X-0.4
M106 S0 
G1 X-0.1
M106 S255
G1 X-0.3
M106 S0 
G1 X-0.1
M106 S255
G1 X-0.2
M106 S0 
G1 X-0.1
M106 S255
G1 X-0.5
M106 S0 
G1 X-0.1
M106 S255
G1 X-0.3
M106 S0 
G1 X-0.1
M106 S255
G1 X-0.3
M106 S0 
G1 X-0.1
M106 S255
G1 X-0.2
M106 S0 
G1 X-0.1
M106 S255
G1 X-0.5
M106 S0 
G1 X-0.1
M106 S255
G1 X-0.4
M106 S0 
G1 X-0.1
M106 S255
G1 X-0.2
M106 S0 
G1 X-0.1
M106 S255
G1 X-0.1
M106 S0 
G1 X-0.1
M106 S255
G1 X-0.1
M106 S0 
G1 X-0.1
M106 S255
G1 X-0.1
M106 S0 
G1 X-0.1
M106 S255
G1 X-0.4
M106 S0 
G1 X-0.1
M106 S255
G1 X-0.1
M106 S0 
G1 X-0.2
M106 S255
G1 X-0.1
M106 S0 
G1 X-0.2
M106 S255
G1 X-0.1
M106 S0 
G1 X-5
G1 X0.4Y0.1
G1 X5
M106 S255
G1 X0.1
M106 S0 
G1 X0.2
M106 S255
G1 X0.1
M106 S0 
G1 X0.1
M106 S255
G1 X0.8
M106 S0 
G1 X0.1
M106 S255
G1 X0.2
M106 S0 
G1 X0.1
M106 S255
G1 X0.3
M106 S0 
G1 X0.1
M106 S255
G1 X0.4
M106 S0 
G1 X0.1
M106 S255
G1 X0.4
M106 S0 
G1 X0.1
M106 S255
G1 X0.2
M106 S0 
G1 X0.1
M106 S255
G1 X0.4
M106 S0 
G1 X0.1
M106 S255
G1 X0.2
M106 S0 
G1 X0.1
M106 S255
G1 X0.5
M106 S0 
G1 X0.1
M106 S255
G1 X0.2
M106 S0 
G1 X0.1
M106 S255
G1 X0.3
M106 S0 
G1 X0.1
M106 S255
G1 X0.4
M106 S0 
G1 X0.1
M106 S255
G1 X0.3
M106 S0 
G1 X0.1
M106 S255
G1 X0.7
M106 S0 
G1 X0.1
M106 S255
G1 X0.5
M106 S0 
G1 X0.1
M106 S255
G1 X0.3
M106 S0 
G1 X0.1
M106 S255
G1 X0.3
M106 S0 
G1 X0.1
M106 S255
G1 X0.3
M106 S0 
G1 X0.1
M106 S255
G1 X0.3
M106 S0 
G1 X0.1
M106 S255
G1 X0.2
M106 S0 
G1 X0.1
M106 S255
G1 X0.3
M106 S0 
G1 X0.1
M106 S255
G1 X0.4
M106 S0 
G1 X0.1
M106 S255
G1 X0.2
M106 S0 
G1 X0.1
M106 S255
G1 X0.2
M106 S0 
G1 X0.1
M106 S255
G1 X0.1
M106 S0 
G1 X0.1
M106 S255
G1 X0.1
M106 S0 
G1 X0.1
M106 S255
G1 X0.2
M106 S0 
G1 X0.1
M106 S255
G1 X0.2
M106 S0 
G1 X0.1
M106 S255
G1 X0.8
M106 S0 
G1 X0.1
M106 S255
G1 X1
M106 S0 
G1 X0.1
M106 S255
G1 X0.7
M106 S0 
G1 X0.1
M106 S255
G1 X0.2
M106 S0 
G1 X0.1
M106 S255
G1 X0.7
M106 S0 
G1 X0.1
M106 S255
G1 X0.9
M106 S0 
G1 X0.1
M106 S255
G1 X0.6
M106 S0 
G1 X0.1
M106 S255
G1 X0.7
M106 S0 
G1 X0.1
M106 S255
G1 X0.5
M106 S0 
G1 X0.1
M106 S255
G1 X0.5
M106 S0 
G1 X0.1
M106 S255
G1 X0.6
M106 S0 
G1 X0.1
M106 S255
G1 X1.6
M106 S0 
G1 X0.1
M106 S255
G1 X0.2
M106 S0 
G1 X0.1
M106 S255
G1 X0.7
M106 S0 
G1 X0.1
M106 S255
G1 X0.5
M106 S0 
G1 X0.1
M106 S255
G1 X0.2
M106 S0 
G1 X0.1
M106 S255
G1 X0.2
M106 S0 
G1 X0.1
M106 S255
G1 X0.1
M106 S0 
G1 X0.1
M106 S255
G1 X0.1
M106 S0 
G1 X0.1
M106 S255
G1 X0.1
M106 S0 
G1 X0.1
M106 S255
G1 X0.1
M106 S0 
G1 X0.1
M106 S255
G1 X0.1
M106 S0 
G1 X0.2
M106 S255
G1 X0.1
M106 S0 
G1 X0.1
M106 S255
G1 X0.1
M106 S0 
G1 X0.2
M106 S255
G1 X0.1
M106 S0 
G1 X0.2
M106 S255
G1 X0.1
M106 S0 
G1 X0.1
M106 S255
G1 X0.1
M106 S0 
G1 X0.1
M106 S255
G1 X0.1
M106 S0 
G1 X0.1
M106 S255
G1 X0.1
M106 S0 
G1 X0.1
M106 S255
G1 X0.1
M106 S0 
G1 X0.2
M106 S255
G1 X0.1
M106 S0 
G1 X0.2
M106 S255
G1 X0.1
M106 S0 
G1 X0.1
M106 S255
G1 X0.1
M106 S0 
G1 X0.2
M106 S255
G1 X0.1
M106 S0 
G1 X0.3
M106 S255
G1 X0.1
M106 S0 
G1 X5
G1 X0.8Y0.1
G1 X-5
M106 S255
G1 X-0.1
M106 S0 
G1 X-0.4
M106 S255
G1 X-0.1
M106 S0 
G1 X-0.3
M106 S255
G1 X-0.1
M106 S0 
G1 X-0.2
M106 S255
G1 X-0.1
M106 S0 
G1 X-0.2
M106 S255
G1 X-0.1
M106 S0 
G1 X-0.2
M106 S255
G1 X-0.1
M106 S0 
G1 X-0.1
M106 S255
G1 X-0.1
M106 S0 
G1 X-0.1
M106 S255
G1 X-0.1
M106 S0 
G1 X-0.1
M106 S255
G1 X-0.1
M106 S0 
G1 X-0.1
M106 S255
G1 X-0.1
M106 S0 
G1 X-0.1
M106 S255
G1 X-0.1
M106 S0 
G1 X-0.1
M106 S255
G1 X-0.1
M106 S0 
G1 X-0.2
M106 S255
G1 X-0.1
M106 S0 
G1 X-0.2
M106 S255
G1 X-0.2
M106 S0 
G1 X-0.1
M106 S255
G1 X-0.1
M106 S0 
G1 X-0.1
M106 S255
G1 X-0.1
M106 S0 
G1 X-0.1
M106 S255
G1 X-0.1
M106 S0 
G1 X-0.1
M106 S255
G1 X-0.1
M106 S0 
G1 X-0.1
M106 S255
G1 X-0.2
M106 S0 
G1 X-0.1
M106 S255
G1 X-0.2
M106 S0 
G1 X-0.1
M106 S255
G1 X-0.1
M106 S0 
G1 X-0.1
M106 S255
G1 X-0.1
M106 S0 
G1 X-0.1
M106 S255
G1 X-0.8
M106 S0 
G1 X-0.1
M106 S255
G1 X-0.2
M106 S0 
G1 X-0.1
M106 S255
G1 X-0.9
M106 S0 
G1 X-0.1
M106 S255
G1 X-0.2
M106 S0 
G1 X-0.1
M106 S255
G1 X-0.3
M106 S0 
G1 X-0.1
M106 S255
G1 X-0.3
M106 S0 
G1 X-0.1
M106 S255
G1 X-0.4
M106 S0 
G1 X-0.1
M106 S255
G1 X-0.6
M106 S0 
G1 X-0.1
M106 S255
G1 X-0.4
M106 S0 
G1 X-0.1
M106 S255
G1 X-0.2
M106 S0 
G1 X-0.1
M106 S255
G1 X-0.3
M106 S0 
G1 X-0.1
M106 S255
G1 X-0.2
M106 S0 
G1 X-0.1
M106 S255
G1 X-0.6
M106 S0 
G1 X-0.1
M106 S255
G1 X-0.5
M106 S0 
G1 X-0.1
M106 S255
G1 X-0.2
M106 S0 
G1 X-0.1
M106 S255
G1 X-1.7
M106 S0 
G1 X-0.1
M106 S255
G1 X-0.6
M106 S0 
G1 X-0.1
M106 S255
G1 X-0.5
M106 S0 
G1 X-0.1
M106 S255
G1 X-0.6
M106 S0 
G1 X-0.1
M106 S255
G1 X-0.2
M106 S0 
G1 X-0.1
M106 S255
G1 X-0.5
M106 S0 
G1 X-0.1
M106 S255
G1 X-0.5
M106 S0 
G1 X-0.1
M106 S255
G1 X-0.2
M106 S0 
G1 X-0.1
M106 S255
G1 X-0.4
M106 S0 
G1 X-0.1
M106 S255
G1 X-0.4
M106 S0 
G1 X-0.1
M106 S255
G1 X-0.8
M106 S0 
G1 X-0.1
M106 S255
G1 X-0.7
M106 S0 
G1 X-0.1
M106 S255
G1 X-0.5
M106 S0 
G1 X-0.1
M106 S255
G1 X-0.5
M106 S0 
G1 X-0.1
M106 S255
G1 X-0.1
M106 S0 
G1 X-0.1
M106 S255
G1 X-0.3
M106 S0 
G1 X-0.1
M106 S255
G1 X-0.5
M106 S0 
G1 X-0.1
M106 S255
G1 X-0.2
M106 S0 
G1 X-0.1
M106 S255
G1 X-0.8
M106 S0 
G1 X-0.1
M106 S255
G1 X-0.1
M106 S0 
G1 X-0.1
M106 S255
G1 X-0.5
M106 S0 
G1 X-0.1
M106 S255
G1 X-0.3
M106 S0 
G1 X-0.1
M106 S255
G1 X-0.2
M106 S0 
G1 X-0.1
M106 S255
G1 X-0.2
M106 S0 
G1 X-0.1
M106 S255
G1 X-0.2
M106 S0 
G1 X-0.1
M106 S255
G1 X-0.4
M106 S0 
G1 X-0.1
M106 S255
G1 X-0.7
M106 S0 
G1 X-0.1
M106 S255
G1 X-0.2
M106 S0 
G1 X-0.1
M106 S255
G1 X-0.1
M106 S0 
G1 X-0.1
M106 S255
G1 X-0.5
M106 S0 
G1 X-0.2
M106 S255
G1 X-0.1
M106 S0 
G1 X-0.3
M106 S255
G1 X-0.1
M106 S0 
G1 X-5
G1 X0.2Y0.1
G1 X5
M106 S255
G1 X0.1
M106 S0 
G1 X0.2
M106 S255
G1 X0.2
M106 S0 
G1 X0.1
M106 S255
G1 X0.1
M106 S0 
G1 X0.1
M106 S255
G1 X0.8
M106 S0 
G1 X0.1
M106 S255
G1 X0.2
M106 S0 
G1 X0.1
M106 S255
G1 X0.2
M106 S0 
G1 X0.1
M106 S255
G1 X0.2
M106 S0 
G1 X0.1
M106 S255
G1 X0.3
M106 S0 
G1 X0.1
M106 S255
G1 X0.3
M106 S0 
G1 X0.1
M106 S255
G1 X0.2
M106 S0 
G1 X0.1
M106 S255
G1 X0.3
M106 S0 
G1 X0.1
M106 S255
G1 X0.3
M106 S0 
G1 X0.1
M106 S255
G1 X0.7
M106 S0 
G1 X0.1
M106 S255
G1 X0.2
M106 S0 
G1 X0.1
M106 S255
G1 X0.7
M106 S0 
G1 X0.1
M106 S255
G1 X0.6
M106 S0 
G1 X0.1
M106 S255
G1 X0.3
M106 S0 
G1 X0.1
M106 S255
G1 X0.2
M106 S0 
G1 X0.1
M106 S255
G1 X0.3
M106 S0 
G1 X0.1
M106 S255
G1 X0.5
M106 S0 
G1 X0.1
M106 S255
G1 X0.1
M106 S0 
G1 X0.1
M106 S255
G1 X0.5
M106 S0 
G1 X0.1
M106 S255
G1 X0.1
M106 S0 
G1 X0.1
M106 S255
G1 X0.2
M106 S0 
G1 X0.1
M106 S255
G1 X0.3
M106 S0 
G1 X0.1
M106 S255
G1 X0.3
M106 S0 
G1 X0.1
M106 S255
G1 X0.9
M106 S0 
G1 X0.1
M106 S255
G1 X0.5
M106 S0 
G1 X0.1
M106 S255
G1 X0.7
M106 S0 
G1 X0.1
M106 S255
G1 X0.7
M106 S0 
G1 X0.1
M106 S255
G1 X1.9
M106 S0 
G1 X0.1
M106 S255
G1 X0.2
M106 S0 
G1 X0.1
M106 S255
G1 X1
M106 S0 
G1 X0.1
M106 S255
G1 X0.4
M106 S0 
G1 X0.1
M106 S255
G1 X1.3
M106 S0 
G1 X0.1
M106 S255
G1 X0.7
M106 S0 
G1 X0.1
M106 S255
G1 X0.3
M106 S0 
G1 X0.1
M106 S255
G1 X0.6
M106 S0 
G1 X0.1
M106 S255
G1 X1.2
M106 S0 
G1 X0.1
M106 S255
G1 X1.3
M106 S0 
G1 X0.1
M106 S255
G1 X0.2
M106 S0 
G1 X0.1
M106 S255
G1 X0.2
M106 S0 
G1 X0.1
M106 S255
G1 X0.2
M106 S0 
G1 X0.1
M106 S255
G1 X0.1
M106 S0 
G1 X0.1
M106 S255
G1 X0.1
M106 S0 
G1 X0.2
M106 S255
G1 X0.1
M106 S0 
G1 X0.1
M106 S255
G1 X0.1
M106 S0 
G1 X0.1
M106 S255
G1 X0.1
M106 S0 
G1 X0.1
M106 S255
G1 X0.1
M106 S0 
G1 X0.1
M106 S255
G1 X0.1
M106 S0 
G1 X0.1
M106 S255
G1 X0.1
M106 S0 
G1 X0.1
M106 S255
G1 X0.2
M106 S0 
G1 X0.1
M106 S255
G1 X0.1
M106 S0 
G1 X0.1
M106 S255
G1 X0.1
M106 S0 
G1 X0.2
M106 S255
G1 X0.1
M106 S0 
G1 X0.2
M106 S255
G1 X0.1
M106 S0 
G1 X0.1
M106 S255
G1 X0.1
M106 S0 
G1 X0.1
M106 S255
G1 X0.1
M106 S0 
G1 X0.1
M106 S255
G1 X0.1
M106 S0 
G1 X0.2
M106 S255
G1 X0.1
M106 S0 
G1 X0.2
M106 S255
G1 X0.1
M106 S0 
G1 X0.2
M106 S255
G1 X0.1
M106 S0 
G1 X0.3
M106 S255
G1 X0.1
M106 S0 
G1 X5
G1 X0.3Y0.1
G1 X-5
M106 S255
G1 X-0.1
M106 S0 
G1 X-0.5
M106 S255
G1 X-0.1
M106 S0 
G1 X-0.2
M106 S255
G1 X-0.1
M106 S0 
G1 X-0.2
M106 S255
G1 X-0.1
M106 S0 
G1 X-0.1
M106 S255
G1 X-0.1
M106 S0 
G1 X-0.1
M106 S255
G1 X-0.1
M106 S0 
G1 X-0.2
M106 S255
G1 X-0.1
M106 S0 
G1 X-0.2
M106 S255
G1 X-0.1
M106 S0 
G1 X-0.1
M106 S255
G1 X-0.1
M106 S0 
G1 X-0.2
M106 S255
G1 X-0.1
M106 S0 
G1 X-0.1
M106 S255
G1 X-0.1
M106 S0 
G1 X-0.1
M106 S255
G1 X-0.1
M106 S0 
G1 X-0.2
M106 S255
G1 X-0.1
M106 S0 
G1 X-0.1
M106 S255
G1 X-0.1
M106 S0 
G1 X-0.1
M106 S255
G1 X-0.1
M106 S0 
G1 X-0.1
M106 S255
G1 X-0.1
M106 S0 
G1 X-0.1
M106 S255
G1 X-0.1
M106 S0 
G1 X-0.1
M106 S255
G1 X-0.1
M106 S0 
G1 X-0.1
M106 S255
G1 X-0.2
M106 S0 
G1 X-0.1
M106 S255
G1 X-0.1
M106 S0 
G1 X-0.1
M106 S255
G1 X-0.2
M106 S0 
G1 X-0.1
M106 S255
G1 X-1.5
M106 S0 
G1 X-0.1
M106 S255
G1 X-0.2
M106 S0 
G1 X-0.1
M106 S255
G1 X-0.5
M106 S0 
G1 X-0.1
M106 S255
G1 X-0.4
M106 S0 
G1 X-0.1
M106 S255
G1 X-0.7
M106 S0 
G1 X-0.1
M106 S255
G1 X-0.3
M106 S0 
G1 X-0.1
M106 S255
G1 X-0.5
M106 S0 
G1 X-0.1
M106 S255
G1 X-0.1
M106 S0 
G1 X-0.1
M106 S255
G1 X-0.5
M106 S0 
G1 X-0.1
M106 S255
G1 X-0.2
M106 S0 
G1 X-0.1
M106 S255
G1 X-0.2
M106 S0 
G1 X-0.1
M106 S255
G1 X-0.2
M106 S0 
G1 X-0.1
M106 S255
G1 X-1.4
M106 S0 
G1 X-0.1
M106 S255
G1 X-0.9
M106 S0 
G1 X-0.1
M106 S255
G1 X-0.3
M106 S0 
G1 X-0.1
M106 S255
G1 X-0.3
M106 S0 
G1 X-0.1
M106 S255
G1 X-0.2
M106 S0 
G1 X-0.1
M106 S255
G1 X-0.6
M106 S0 
G1 X-0.1
M106 S255
G1 X-0.3
M106 S0 
G1 X-0.1
M106 S255
G1 X-0.4
M106 S0 
G1 X-0.1
M106 S255
G1 X-0.2
M106 S0 
G1 X-0.1
M106 S255
G1 X-0.2
M106 S0 
G1 X-0.1
M106 S255
G1 X-0.2
M106 S0 
G1 X-0.1
M106 S255
G1 X-0.2
M106 S0 
G1 X-0.1
M106 S255
G1 X-0.2
M106 S0 
G1 X-0.1
M106 S255
G1 X-0.2
M106 S0 
G1 X-0.1
M106 S255
G1 X-0.1
M106 S0 
G1 X-0.1
M106 S255
G1 X-0.2
M106 S0 
G1 X-0.1
M106 S255
G1 X-0.2
M106 S0 
G1 X-0.1
M106 S255
G1 X-0.4
M106 S0 
G1 X-0.1
M106 S255
G1 X-0.4
M106 S0 
G1 X-0.1
M106 S255
G1 X-0.2
M106 S0 
G1 X-0.1
M106 S255
G1 X-0.5
M106 S0 
G1 X-0.1
M106 S255
G1 X-0.1
M106 S0 
G1 X-0.1
M106 S255
G1 X-0.5
M106 S0 
G1 X-0.1
M106 S255
G1 X-0.8
M106 S0 
G1 X-0.1
M106 S255
G1 X-0.2
M106 S0 
G1 X-0.1
M106 S255
G1 X-0.6
M106 S0 
G1 X-0.1
M106 S255
G1 X-0.8
M106 S0 
G1 X-0.1
M106 S255
G1 X-0.8
M106 S0 
G1 X-0.1
M106 S255
G1 X-0.3
M106 S0 
G1 X-0.1
M106 S255
G1 X-0.2
M106 S0 
G1 X-0.1
M106 S255
G1 X-0.5
M106 S0 
G1 X-0.1
M106 S255
G1 X-0.7
M106 S0 
G1 X-0.1
M106 S255
G1 X-0.4
M106 S0 
G1 X-0.1
M106 S255
G1 X-0.1
M106 S0 
G1 X-0.1
M106 S255
G1 X-0.2
M106 S0 
G1 X-0.1
M106 S255
G1 X-0.4
M106 S0 
G1 X-0.1
M106 S255
G1 X-0.1
M106 S0 
G1 X-0.2
M106 S255
G1 X-0.1
M106 S0 
G1 X-0.3
M106 S255
G1 X-0.1
M106 S0 
G1 X-5
G1 X0.2Y0.1
G1 X5
M106 S255
G1 X0.1
M106 S0 
G1 X0.2
M106 S255
G1 X0.2
M106 S0 
G1 X0.1
M106 S255
G1 X0.2
M106 S0 
G1 X0.1
M106 S255
G1 X0.3
M106 S0 
G1 X0.1
M106 S255
G1 X0.2
M106 S0 
G1 X0.1
M106 S255
G1 X0.2
M106 S0 
G1 X0.1
M106 S255
G1 X0.4
M106 S0 
G1 X0.1
M106 S255
G1 X0.2
M106 S0 
G1 X0.1
M106 S255
G1 X0.3
M106 S0 
G1 X0.1
M106 S255
G1 X0.2
M106 S0 
G1 X0.1
M106 S255
G1 X0.5
M106 S0 
G1 X0.1
M106 S255
G1 X0.5
M106 S0 
G1 X0.1
M106 S255
G1 X0.2
M106 S0 
G1 X0.1
M106 S255
G1 X0.4
M106 S0 
G1 X0.1
M106 S255
G1 X0.2
M106 S0 
G1 X0.1
M106 S255
G1 X0.5
M106 S0 
G1 X0.1
M106 S255
G1 X0.2
M106 S0 
G1 X0.1
M106 S255
G1 X0.5
M106 S0 
G1 X0.1
M106 S255
G1 X0.2
M106 S0 
G1 X0.1
M106 S255
G1 X0.1
M106 S0 
G1 X0.1
M106 S255
G1 X0.4
M106 S0 
G1 X0.1
M106 S255
G1 X0.6
M106 S0 
G1 X0.1
M106 S255
G1 X0.6
M106 S0 
G1 X0.1
M106 S255
G1 X0.8
M106 S0 
G1 X0.1
M106 S255
G1 X1
M106 S0 
G1 X0.1
M106 S255
G1 X0.2
M106 S0 
G1 X0.1
M106 S255
G1 X1.2
M106 S0 
G1 X0.1
M106 S255
G1 X0.4
M106 S0 
G1 X0.1
M106 S255
G1 X0.2
M106 S0 
G1 X0.1
M106 S255
G1 X0.4
M106 S0 
G1 X0.1
M106 S255
G1 X2.8
M106 S0 
G1 X0.1
M106 S255
G1 X0.2
M106 S0 
G1 X0.1
M106 S255
G1 X0.4
M106 S0 
G1 X0.1
M106 S255
G1 X1.3
M106 S0 
G1 X0.1
M106 S255
G1 X0.7
M106 S0 
G1 X0.1
M106 S255
G1 X0.8
M106 S0 
G1 X0.1
M106 S255
G1 X0.3
M106 S0 
G1 X0.1
M106 S255
G1 X0.5
M106 S0 
G1 X0.1
M106 S255
G1 X0.4
M106 S0 
G1 X0.1
M106 S255
G1 X0.7
M106 S0 
G1 X0.1
M106 S255
G1 X0.2
M106 S0 
G1 X0.1
M106 S255
G1 X0.2
M106 S0 
G1 X0.1
M106 S255
G1 X0.2
M106 S0 
G1 X0.1
M106 S255
G1 X0.4
M106 S0 
G1 X0.1
M106 S255
G1 X0.1
M106 S0 
G1 X0.1
M106 S255
G1 X0.1
M106 S0 
G1 X0.1
M106 S255
G1 X0.1
M106 S0 
G1 X0.1
M106 S255
G1 X0.1
M106 S0 
G1 X0.1
M106 S255
G1 X0.1
M106 S0 
G1 X0.1
M106 S255
G1 X0.1
M106 S0 
G1 X0.1
M106 S255
G1 X0.2
M106 S0 
G1 X0.1
M106 S255
G1 X0.1
M106 S0 
G1 X0.2
M106 S255
G1 X0.1
M106 S0 
G1 X0.1
M106 S255
G1 X0.1
M106 S0 
G1 X0.1
M106 S255
G1 X0.1
M106 S0 
G1 X0.1
M106 S255
G1 X0.1
M106 S0 
G1 X0.1
M106 S255
G1 X0.2
M106 S0 
G1 X0.1
M106 S255
G1 X0.1
M106 S0 
G1 X0.1
M106 S255
G1 X0.1
M106 S0 
G1 X0.1
M106 S255
G1 X0.1
M106 S0 
G1 X0.1
M106 S255
G1 X0.1
M106 S0 
G1 X0.1
M106 S255
G1 X0.1
M106 S0 
G1 X0.1
M106 S255
G1 X0.1
M106 S0 
G1 X0.1
M106 S255
G1 X0.1
M106 S0 
G1 X0.2
M106 S255
G1 X0.1
M106 S0 
G1 X0.2
M106 S255
G1 X0.1
M106 S0 
G1 X0.2
M106 S255
G1 X0.1
M106 S0 
G1 X5
G1 X0.5Y0.1
G1 X-5
M106 S255
G1 X-0.1
M106 S0 
G1 X-0.6
M106 S255
G1 X-0.1
M106 S0 
G1 X-0.2
M106 S255
G1 X-0.1
M106 S0 
G1 X-0.2
M106 S255
G1 X-0.1
M106 S0 
G1 X-0.1
M106 S255
G1 X-0.1
M106 S0 
G1 X-0.2
M106 S255
G1 X-0.1
M106 S0 
G1 X-0.2
M106 S255
G1 X-0.1
M106 S0 
G1 X-0.1
M106 S255
G1 X-0.1
M106 S0 
G1 X-0.1
M106 S255
G1 X-0.1
M106 S0 
G1 X-0.1
M106 S255
G1 X-0.1
M106 S0 
G1 X-0.2
M106 S255
G1 X-0.1
M106 S0 
G1 X-0.1
M106 S255
G1 X-0.1
M106 S0 
G1 X-0.1
M106 S255
G1 X-0.1
M106 S0 
G1 X-0.1
M106 S255
G1 X-0.1
M106 S0 
G1 X-0.1
M106 S255
G1 X-0.2
M106 S0 
G1 X-0.1
M106 S255
G1 X-0.1
M106 S0 
G1 X-0.2
M106 S255
G1 X-0.1
M106 S0 
G1 X-0.1
M106 S255
G1 X-0.1
M106 S0 
G1 X-0.1
M106 S255
G1 X-0.1
M106 S0 
G1 X-0.1
M106 S255
G1 X-0.1
M106 S0 
G1 X-0.1
M106 S255
G1 X-0.1
M106 S0 
G1 X-0.1
M106 S255
G1 X-0.3
M106 S0 
G1 X-0.1
M106 S255
G1 X-1.6
M106 S0 
G1 X-0.1
M106 S255
G1 X-2.1
M106 S0 
G1 X-0.1
M106 S255
G1 X-0.3
M106 S0 
G1 X-0.1
M106 S255
G1 X-0.4
M106 S0 
G1 X-0.1
M106 S255
G1 X-0.2
M106 S0 
G1 X-0.1
M106 S255
G1 X-0.4
M106 S0 
G1 X-0.1
M106 S255
G1 X-0.2
M106 S0 
G1 X-0.1
M106 S255
G1 X-0.2
M106 S0 
G1 X-0.1
M106 S255
G1 X-2.3
M106 S0 
G1 X-0.1
M106 S255
G1 X-0.8
M106 S0 
G1 X-0.1
M106 S255
G1 X-0.2
M106 S0 
G1 X-0.1
M106 S255
G1 X-0.3
M106 S0 
G1 X-0.1
M106 S255
G1 X-0.5
M106 S0 
G1 X-0.1
M106 S255
G1 X-0.6
M106 S0 
G1 X-0.1
M106 S255
G1 X-0.5
M106 S0 
G1 X-0.1
M106 S255
G1 X-0.2
M106 S0 
G1 X-0.1
M106 S255
G1 X-0.2
M106 S0 
G1 X-0.1
M106 S255
G1 X-0.7
M106 S0 
G1 X-0.1
M106 S255
G1 X-0.2
M106 S0 
G1 X-0.1
M106 S255
G1 X-0.1
M106 S0 
G1 X-0.1
M106 S255
G1 X-0.2
M106 S0 
G1 X-0.1
M106 S255
G1 X-0.3
M106 S0 
G1 X-0.1
M106 S255
G1 X-0.2
M106 S0 
G1 X-0.1
M106 S255
G1 X-0.5
M106 S0 
G1 X-0.1
M106 S255
G1 X-0.1
M106 S0 
G1 X-0.1
M106 S255
G1 X-0.5
M106 S0 
G1 X-0.1
M106 S255
G1 X-0.1
M106 S0 
G1 X-0.1
M106 S255
G1 X-0.4
M106 S0 
G1 X-0.1
M106 S255
G1 X-0.7
M106 S0 
G1 X-0.1
M106 S255
G1 X-1.1
M106 S0 
G1 X-0.1
M106 S255
G1 X-0.6
M106 S0 
G1 X-0.1
M106 S255
G1 X-0.2
M106 S0 
G1 X-0.1
M106 S255
G1 X-0.3
M106 S0 
G1 X-0.1
M106 S255
G1 X-0.2
M106 S0 
G1 X-0.1
M106 S255
G1 X-0.2
M106 S0 
G1 X-0.1
M106 S255
G1 X-0.1
M106 S0 
G1 X-0.1
M106 S255
G1 X-0.2
M106 S0 
G1 X-0.1
M106 S255
G1 X-0.7
M106 S0 
G1 X-0.1
M106 S255
G1 X-0.3
M106 S0 
G1 X-0.1
M106 S255
G1 X-0.2
M106 S0 
G1 X-0.1
M106 S255
G1 X-0.7
M106 S0 
G1 X-0.1
M106 S255
G1 X-0.5
M106 S0 
G1 X-0.1
M106 S255
G1 X-0.1
M106 S0 
G1 X-0.2
M106 S255
G1 X-0.1
M106 S0 
G1 X-0.3
M106 S255
G1 X-0.1
M106 S0 
G1 X-5
G1 X-0.2Y0.1
G1 X5
M106 S255
G1 X0.1
M106 S0 
G1 X0.2
M106 S255
G1 X0.1
M106 S0 
G1 X0.1
M106 S255
G1 X0.1
M106 S0 
G1 X0.1
M106 S255
G1 X0.2
M106 S0 
G1 X0.1
M106 S255
G1 X0.3
M106 S0 
G1 X0.1
M106 S255
G1 X0.4
M106 S0 
G1 X0.1
M106 S255
G1 X0.2
M106 S0 
G1 X0.1
M106 S255
G1 X0.6
M106 S0 
G1 X0.1
M106 S255
G1 X0.5
M106 S0 
G1 X0.1
M106 S255
G1 X0.1
M106 S0 
G1 X0.1
M106 S255
G1 X0.6
M106 S0 
G1 X0.1
M106 S255
G1 X0.4
M106 S0 
G1 X0.1
M106 S255
G1 X0.4
M106 S0 
G1 X0.1
M106 S255
G1 X0.5
M106 S0 
G1 X0.1
M106 S255
G1 X0.2
M106 S0 
G1 X0.1
M106 S255
G1 X0.3
M106 S0 
G1 X0.1
M106 S255
G1 X0.1
M106 S0 
G1 X0.1
M106 S255
G1 X0.2
M106 S0 
G1 X0.1
M106 S255
G1 X0.2
M106 S0 
G1 X0.1
M106 S255
G1 X0.4
M106 S0 
G1 X0.1
M106 S255
G1 X0.6
M106 S0 
G1 X0.1
M106 S255
G1 X0.5
M106 S0 
G1 X0.1
M106 S255
G1 X0.2
M106 S0 
G1 X0.1
M106 S255
G1 X1.1
M106 S0 
G1 X0.1
M106 S255
G1 X0.6
M106 S0 
G1 X0.1
M106 S255
G1 X0.4
M106 S0 
G1 X0.1
M106 S255
G1 X0.3
M106 S0 
G1 X0.1
M106 S255
G1 X0.2
M106 S0 
G1 X0.1
M106 S255
G1 X0.2
M106 S0 
G1 X0.1
M106 S255
G1 X0.2
M106 S0 
G1 X0.1
M106 S255
G1 X0.2
M106 S0 
G1 X0.1
M106 S255
G1 X0.1
M106 S0 
G1 X0.1
M106 S255
G1 X0.3
M106 S0 
G1 X0.1
M106 S255
G1 X0.2
M106 S0 
G1 X0.1
M106 S255
G1 X0.4
M106 S0 
G1 X0.1
M106 S255
G1 X0.4
M106 S0 
G1 X0.1
M106 S255
G1 X0.8
M106 S0 
G1 X0.1
M106 S255
G1 X0.2
M106 S0 
G1 X0.1
M106 S255
G1 X0.5
M106 S0 
G1 X0.1
M106 S255
G1 X0.2
M106 S0 
G1 X0.1
M106 S255
G1 X0.9
M106 S0 
G1 X0.1
M106 S255
G1 X0.4
M106 S0 
G1 X0.1
M106 S255
G1 X1
M106 S0 
G1 X0.1
M106 S255
G1 X1.2
M106 S0 
G1 X0.1
M106 S255
G1 X0.5
M106 S0 
G1 X0.1
M106 S255
G1 X0.3
M106 S0 
G1 X0.1
M106 S255
G1 X0.2
M106 S0 
G1 X0.1
M106 S255
G1 X0.4
M106 S0 
G1 X0.1
M106 S255
G1 X0.8
M106 S0 
G1 X0.1
M106 S255
G1 X0.4
M106 S0 
G1 X0.1
M106 S255
G1 X0.2
M106 S0 
G1 X0.1
M106 S255
G1 X0.7
M106 S0 
G1 X0.1
M106 S255
G1 X0.1
M106 S0 
G1 X0.1
M106 S255
G1 X0.2
M106 S0 
G1 X0.1
M106 S255
G1 X0.1
M106 S0 
G1 X0.1
M106 S255
G1 X0.1
M106 S0 
G1 X0.1
M106 S255
G1 X0.1
M106 S0 
G1 X0.1
M106 S255
G1 X0.2
M106 S0 
G1 X0.1
M106 S255
G1 X0.1
M106 S0 
G1 X0.2
M106 S255
G1 X0.1
M106 S0 
G1 X0.1
M106 S255
G1 X0.1
M106 S0 
G1 X0.1
M106 S255
G1 X0.1
M106 S0 
G1 X0.2
M106 S255
G1 X0.1
M106 S0 
G1 X0.1
M106 S255
G1 X0.1
M106 S0 
G1 X0.1
M106 S255
G1 X0.1
M106 S0 
G1 X0.2
M106 S255
G1 X0.1
M106 S0 
G1 X0.1
M106 S255
G1 X0.1
M106 S0 
G1 X0.1
M106 S255
G1 X0.1
M106 S0 
G1 X0.1
M106 S255
G1 X0.1
M106 S0 
G1 X0.2
M106 S255
G1 X0.1
M106 S0 
G1 X0.1
M106 S255
G1 X0.1
M106 S0 
G1 X0.2
M106 S255
G1 X0.1
M106 S0 
G1 X0.2
M106 S255
G1 X0.1
M106 S0 
G1 X0.2
M106 S255
G1 X0.1
M106 S0 
G1 X5
G1 X-0.2Y0.1
G1 X-5
M106 S255
G1 X-0.1
M106 S0 
G1 X-0.2
M106 S255
G1 X-0.1
M106 S0 
G1 X-0.2
M106 S255
G1 X-0.1
M106 S0 
G1 X-0.1
M106 S255
G1 X-0.1
M106 S0 
G1 X-0.2
M106 S255
G1 X-0.1
M106 S0 
G1 X-0.1
M106 S255
G1 X-0.1
M106 S0 
G1 X-0.1
M106 S255
G1 X-0.1
M106 S0 
G1 X-0.1
M106 S255
G1 X-0.1
M106 S0 
G1 X-0.1
M106 S255
G1 X-0.2
M106 S0 
G1 X-0.1
M106 S255
G1 X-0.1
M106 S0 
G1 X-0.1
M106 S255
G1 X-0.1
M106 S0 
G1 X-0.1
M106 S255
G1 X-0.2
M106 S0 
G1 X-0.1
M106 S255
G1 X-0.1
M106 S0 
G1 X-0.2
M106 S255
G1 X-0.1
M106 S0 
G1 X-0.1
M106 S255
G1 X-0.1
M106 S0 
G1 X-0.1
M106 S255
G1 X-0.1
M106 S0 
G1 X-0.2
M106 S255
G1 X-0.1
M106 S0 
G1 X-0.1
M106 S255
G1 X-0.1
M106 S0 
G1 X-0.1
M106 S255
G1 X-0.2
M106 S0 
G1 X-0.1
M106 S255
G1 X-0.1
M106 S0 
G1 X-0.1
M106 S255
G1 X-0.1
M106 S0 
G1 X-0.1
M106 S255
G1 X-0.3
M106 S0 
G1 X-0.1
M106 S255
G1 X-0.2
M106 S0 
G1 X-0.1
M106 S255
G1 X-0.6
M106 S0 
G1 X-0.1
M106 S255
G1 X-0.8
M106 S0 
G1 X-0.1
M106 S255
G1 X-0.4
M106 S0 
G1 X-0.1
M106 S255
G1 X-0.7
M106 S0 
G1 X-0.1
M106 S255
G1 X-0.4
M106 S0 
G1 X-0.1
M106 S255
G1 X-0.6
M106 S0 
G1 X-0.1
M106 S255
G1 X-0.2
M106 S0 
G1 X-0.1
M106 S255
G1 X-0.2
M106 S0 
G1 X-0.1
M106 S255
G1 X-0.5
M106 S0 
G1 X-0.1
M106 S255
G1 X-0.3
M106 S0 
G1 X-0.1
M106 S255
G1 X-0.5
M106 S0 
G1 X-0.1
M106 S255
G1 X-0.5
M106 S0 
G1 X-0.1
M106 S255
G1 X-0.3
M106 S0 
G1 X-0.1
M106 S255
G1 X-1.8
M106 S0 
G1 X-0.1
M106 S255
G1 X-0.2
M106 S0 
G1 X-0.1
M106 S255
G1 X-0.4
M106 S0 
G1 X-0.1
M106 S255
G1 X-0.2
M106 S0 
G1 X-0.1
M106 S255
G1 X-0.2
M106 S0 
G1 X-0.1
M106 S255
G1 X-0.2
M106 S0 
G1 X-0.1
M106 S255
G1 X-0.3
M106 S0 
G1 X-0.1
M106 S255
G1 X-1.2
M106 S0 
G1 X-0.1
M106 S255
G1 X-0.2
M106 S0 
G1 X-0.1
M106 S255
G1 X-1
M106 S0 
G1 X-0.1
M106 S255
G1 X-0.1
M106 S0 
G1 X-0.1
M106 S255
G1 X-0.3
M106 S0 
G1 X-0.1
M106 S255
G1 X-0.2
M106 S0 
G1 X-0.1
M106 S255
G1 X-0.1
M106 S0 
G1 X-0.1
M106 S255
G1 X-0.5
M106 S0 
G1 X-0.1
M106 S255
G1 X-0.4
M106 S0 
G1 X-0.1
M106 S255
G1 X-0.7
M106 S0 
G1 X-0.1
M106 S255
G1 X-1
M106 S0 
G1 X-0.1
M106 S255
G1 X-0.4
M106 S0 
G1 X-0.1
M106 S255
G1 X-0.4
M106 S0 
G1 X-0.1
M106 S255
G1 X-0.3
M106 S0 
G1 X-0.1
M106 S255
G1 X-0.5
M106 S0 
G1 X-0.1
M106 S255
G1 X-0.4
M106 S0 
G1 X-0.1
M106 S255
G1 X-0.3
M106 S0 
G1 X-0.1
M106 S255
G1 X-0.2
M106 S0 
G1 X-0.1
M106 S255
G1 X-0.4
M106 S0 
G1 X-0.1
M106 S255
G1 X-0.2
M106 S0 
G1 X-0.1
M106 S255
G1 X-0.3
M106 S0 
G1 X-0.1
M106 S255
G1 X-0.2
M106 S0 
G1 X-0.1
M106 S255
G1 X-0.2
M106 S0 
G1 X-0.1
M106 S255
G1 X-0.2
M106 S0 
G1 X-0.1
M106 S255
G1 X-0.4
M106 S0 
G1 X-0.1
M106 S255
G1 X-0.6
M106 S0 
G1 X-0.1
M106 S255
G1 X-0.1
M106 S0 
G1 X-0.2
M106 S255
G1 X-0.1
M106 S0 
G1 X-5
G1 X-0.3Y0.1
G1 X5
M106 S255
G1 X0.1
M106 S0 
G1 X0.2
M106 S255
G1 X0.1
M106 S0 
G1 X0.1
M106 S255
G1 X0.2
M106 S0 
G1 X0.1
M106 S255
G1 X0.1
M106 S0 
G1 X0.1
M106 S255
G1 X0.1
M106 S0 
G1 X0.1
M106 S255
G1 X0.4
M106 S0 
G1 X0.1
M106 S255
G1 X0.9
M106 S0 
G1 X0.1
M106 S255
G1 X0.4
M106 S0 
G1 X0.1
M106 S255
G1 X0.7
M106 S0 
G1 X0.1
M106 S255
G1 X0.4
M106 S0 
G1 X0.1
M106 S255
G1 X0.3
M106 S0 
G1 X0.1
M106 S255
G1 X0.2
M106 S0 
G1 X0.1
M106 S255
G1 X0.2
M106 S0 
G1 X0.1
M106 S255
G1 X0.2
M106 S0 
G1 X0.1
M106 S255
G1 X0.2
M106 S0 
G1 X0.1
M106 S255
G1 X0.4
M106 S0 
G1 X0.1
M106 S255
G1 X0.5
M106 S0 
G1 X0.1
M106 S255
G1 X0.3
M106 S0 
G1 X0.1
M106 S255
G1 X0.1
M106 S0 
G1 X0.1
M106 S255
G1 X0.1
M106 S0 
G1 X0.1
M106 S255
G1 X0.4
M106 S0 
G1 X0.1
M106 S255
G1 X0.2
M106 S0 
G1 X0.1
M106 S255
G1 X1.1
M106 S0 
G1 X0.1
M106 S255
G1 X1.5
M106 S0 
G1 X0.1
M106 S255
G1 X0.2
M106 S0 
G1 X0.1
M106 S255
G1 X0.1
M106 S0 
G1 X0.1
M106 S255
G1 X0.8
M106 S0 
G1 X0.1
M106 S255
G1 X0.2
M106 S0 
G1 X0.1
M106 S255
G1 X0.2
M106 S0 
G1 X0.1
M106 S255
G1 X0.2
M106 S0 
G1 X0.1
M106 S255
G1 X1.5
M106 S0 
G1 X0.1
M106 S255
G1 X0.7
M106 S0 
G1 X0.1
M106 S255
G1 X0.2
M106 S0 
G1 X0.1
M106 S255
G1 X0.4
M106 S0 
G1 X0.1
M106 S255
G1 X2.8
M106 S0 
G1 X0.1
M106 S255
G1 X0.4
M106 S0 
G1 X0.1
M106 S255
G1 X0.6
M106 S0 
G1 X0.1
M106 S255
G1 X0.2
M106 S0 
G1 X0.1
M106 S255
G1 X2.3
M106 S0 
G1 X0.1
M106 S255
G1 X0.2
M106 S0 
G1 X0.1
M106 S255
G1 X1.9
M106 S0 
G1 X0.1
M106 S255
G1 X0.1
M106 S0 
G1 X0.1
M106 S255
G1 X0.1
M106 S0 
G1 X0.2
M106 S255
G1 X0.1
M106 S0 
G1 X0.1
M106 S255
G1 X0.1
M106 S0 
G1 X0.1
M106 S255
G1 X0.1
M106 S0 
G1 X0.1
M106 S255
G1 X0.1
M106 S0 
G1 X0.1
M106 S255
G1 X0.2
M106 S0 
G1 X0.1
M106 S255
G1 X0.1
M106 S0 
G1 X0.1
M106 S255
G1 X0.1
M106 S0 
G1 X0.2
M106 S255
G1 X0.1
M106 S0 
G1 X0.2
M106 S255
G1 X0.1
M106 S0 
G1 X0.2
M106 S255
G1 X0.1
M106 S0 
G1 X0.2
M106 S255
G1 X0.1
M106 S0 
G1 X0.2
M106 S255
G1 X0.1
M106 S0 
G1 X0.1
M106 S255
G1 X0.1
M106 S0 
G1 X0.1
M106 S255
G1 X0.2
M106 S0 
G1 X0.1
M106 S255
G1 X0.1
M106 S0 
G1 X0.1
M106 S255
G1 X0.1
M106 S0 
G1 X0.2
M106 S255
G1 X0.1
M106 S0 
G1 X0.4
M106 S255
G1 X0.1
M106 S0 
G1 X0.2
M106 S255
G1 X0.1
M106 S0 
G1 X5
G1 X-0.5Y0.1
G1 X-5
M106 S255
G1 X-0.1
M106 S0 
G1 X-0.1
M106 S255
G1 X-0.1
M106 S0 
G1 X-0.2
M106 S255
G1 X-0.1
M106 S0 
G1 X-0.1
M106 S255
G1 X-0.1
M106 S0 
G1 X-0.2
M106 S255
G1 X-0.1
M106 S0 
G1 X-0.2
M106 S255
G1 X-0.1
M106 S0 
G1 X-0.2
M106 S255
G1 X-0.2
M106 S0 
G1 X-0.1
M106 S255
G1 X-0.1
M106 S0 
G1 X-0.2
M106 S255
G1 X-0.2
M106 S0 
G1 X-0.1
M106 S255
G1 X-0.1
M106 S0 
G1 X-0.1
M106 S255
G1 X-0.1
M106 S0 
G1 X-0.1
M106 S255
G1 X-0.1
M106 S0 
G1 X-0.1
M106 S255
G1 X-0.1
M106 S0 
G1 X-0.1
M106 S255
G1 X-0.1
M106 S0 
G1 X-0.2
M106 S255
G1 X-0.1
M106 S0 
G1 X-0.1
M106 S255
G1 X-0.1
M106 S0 
G1 X-0.1
M106 S255
G1 X-0.1
M106 S0 
G1 X-0.1
M106 S255
G1 X-0.1
M106 S0 
G1 X-0.1
M106 S255
G1 X-0.2
M106 S0 
G1 X-0.1
M106 S255
G1 X-0.1
M106 S0 
G1 X-0.1
M106 S255
G1 X-0.7
M106 S0 
G1 X-0.1
M106 S255
G1 X-0.2
M106 S0 
G1 X-0.1
M106 S255
G1 X-0.2
M106 S0 
G1 X-0.1
M106 S255
G1 X-0.4
M106 S0 
G1 X-0.1
M106 S255
G1 X-0.8
M106 S0 
G1 X-0.1
M106 S255
G1 X-0.3
M106 S0 
G1 X-0.1
M106 S255
G1 X-0.2
M106 S0 
G1 X-0.1
M106 S255
G1 X-0.3
M106 S0 
G1 X-0.1
M106 S255
G1 X-0.2
M106 S0 
G1 X-0.1
M106 S255
G1 X-0.3
M106 S0 
G1 X-0.1
M106 S255
G1 X-0.8
M106 S0 
G1 X-0.1
M106 S255
G1 X-0.3
M106 S0 
G1 X-0.1
M106 S255
G1 X-0.9
M106 S0 
G1 X-0.1
M106 S255
G1 X-0.5
M106 S0 
G1 X-0.1
M106 S255
G1 X-1.3
M106 S0 
G1 X-0.1
M106 S255
G1 X-0.6
M106 S0 
G1 X-0.1
M106 S255
G1 X-0.6
M106 S0 
G1 X-0.1
M106 S255
G1 X-0.1
M106 S0 
G1 X-0.1
M106 S255
G1 X-0.1
M106 S0 
G1 X-0.1
M106 S255
G1 X-0.3
M106 S0 
G1 X-0.1
M106 S255
G1 X-0.2
M106 S0 
G1 X-0.1
M106 S255
G1 X-0.1
M106 S0 
G1 X-0.1
M106 S255
G1 X-0.2
M106 S0 
G1 X-0.1
M106 S255
G1 X-0.1
M106 S0 
G1 X-0.1
M106 S255
G1 X-0.4
M106 S0 
G1 X-0.1
M106 S255
G1 X-0.2
M106 S0 
G1 X-0.1
M106 S255
G1 X-0.2
M106 S0 
G1 X-0.1
M106 S255
G1 X-0.3
M106 S0 
G1 X-0.1
M106 S255
G1 X-0.2
M106 S0 
G1 X-0.1
M106 S255
G1 X-0.1
M106 S0 
G1 X-0.1
M106 S255
G1 X-0.8
M106 S0 
G1 X-0.1
M106 S255
G1 X-0.3
M106 S0 
G1 X-0.1
M106 S255
G1 X-0.2
M106 S0 
G1 X-0.1
M106 S255
G1 X-0.4
M106 S0 
G1 X-0.1
M106 S255
G1 X-0.7
M106 S0 
G1 X-0.1
M106 S255
G1 X-0.3
M106 S0 
G1 X-0.1
M106 S255
G1 X-0.5
M106 S0 
G1 X-0.1
M106 S255
G1 X-0.1
M106 S0 
G1 X-0.1
M106 S255
G1 X-0.5
M106 S0 
G1 X-0.1
M106 S255
G1 X-0.5
M106 S0 
G1 X-0.1
M106 S255
G1 X-0.3
M106 S0 
G1 X-0.1
M106 S255
G1 X-0.2
M106 S0 
G1 X-0.1
M106 S255
G1 X-0.5
M106 S0 
G1 X-0.1
M106 S255
G1 X-0.4
M106 S0 
G1 X-0.1
M106 S255
G1 X-0.3
M106 S0 
G1 X-0.1
M106 S255
G1 X-0.1
M106 S0 
G1 X-0.1
M106 S255
G1 X-0.2
M106 S0 
G1 X-0.1
M106 S255
G1 X-0.3
M106 S0 
G1 X-0.1
M106 S255
G1 X-0.2
M106 S0 
G1 X-0.1
M106 S255
G1 X-0.3
M106 S0 
G1 X-0.1
M106 S255
G1 X-0.2
M106 S0 
G1 X-0.1
M106 S255
G1 X-0.3
M106 S0 
G1 X-0.1
M106 S255
G1 X-0.1
M106 S0 
G1 X-0.1
M106 S255
G1 X-0.2
M106 S0 
G1 X-0.1
M106 S255
G1 X-0.2
M106 S0 
G1 X-0.1
M106 S255
G1 X-0.2
M106 S0 
G1 X-0.1
M106 S255
G1 X-0.5
M106 S0 
G1 X-0.1
M106 S255
G1 X-0.2
M106 S0 
G1 X-0.2
M106 S255
G1 X-0.1
M106 S0 
G1 X-5
G1 X-0.2Y0.1
G1 X5
M106 S255
G1 X0.1
M106 S0 
G1 X0.1
M106 S255
G1 X0.2
M106 S0 
G1 X0.1
M106 S255
G1 X0.1
M106 S0 
G1 X0.1
M106 S255
G1 X0.2
M106 S0 
G1 X0.1
M106 S255
G1 X0.4
M106 S0 
G1 X0.1
M106 S255
G1 X0.5
M106 S0 
G1 X0.1
M106 S255
G1 X0.4
M106 S0 
G1 X0.1
M106 S255
G1 X0.4
M106 S0 
G1 X0.1
M106 S255
G1 X0.5
M106 S0 
G1 X0.1
M106 S255
G1 X0.6
M106 S0 
G1 X0.1
M106 S255
G1 X0.2
M106 S0 
G1 X0.1
M106 S255
G1 X0.3
M106 S0 
G1 X0.1
M106 S255
G1 X0.2
M106 S0 
G1 X0.1
M106 S255
G1 X0.4
M106 S0 
G1 X0.1
M106 S255
G1 X0.4
M106 S0 
G1 X0.1
M106 S255
G1 X0.3
M106 S0 
G1 X0.1
M106 S255
G1 X0.2
M106 S0 
G1 X0.1
M106 S255
G1 X0.2
M106 S0 
G1 X0.1
M106 S255
G1 X0.4
M106 S0 
G1 X0.1
M106 S255
G1 X0.7
M106 S0 
G1 X0.1
M106 S255
G1 X0.4
M106 S0 
G1 X0.1
M106 S255
G1 X0.3
M106 S0 
G1 X0.1
M106 S255
G1 X0.1
M106 S0 
G1 X0.1
M106 S255
G1 X0.5
M106 S0 
G1 X0.1
M106 S255
G1 X0.7
M106 S0 
G1 X0.1
M106 S255
G1 X0.4
M106 S0 
G1 X0.1
M106 S255
G1 X0.2
M106 S0 
G1 X0.1
M106 S255
G1 X0.5
M106 S0 
G1 X0.1
M106 S255
G1 X0.2
M106 S0 
G1 X0.1
M106 S255
G1 X1
M106 S0 
G1 X0.1
M106 S255
G1 X0.3
M106 S0 
G1 X0.1
M106 S255
G1 X0.2
M106 S0 
G1 X0.1
M106 S255
G1 X0.3
M106 S0 
G1 X0.1
M106 S255
G1 X0.2
M106 S0 
G1 X0.1
M106 S255
G1 X0.7
M106 S0 
G1 X0.1
M106 S255
G1 X0.2
M106 S0 
G1 X0.1
M106 S255
G1 X0.3
M106 S0 
G1 X0.1
M106 S255
G1 X0.2
M106 S0 
G1 X0.1
M106 S255
G1 X0.5
M106 S0 
G1 X0.1
M106 S255
G1 X0.3
M106 S0 
G1 X0.1
M106 S255
G1 X0.3
M106 S0 
G1 X0.1
M106 S255
G1 X1
M106 S0 
G1 X0.1
M106 S255
G1 X0.2
M106 S0 
G1 X0.1
M106 S255
G1 X1
M106 S0 
G1 X0.1
M106 S255
G1 X0.8
M106 S0 
G1 X0.1
M106 S255
G1 X1.8
M106 S0 
G1 X0.1
M106 S255
G1 X0.7
M106 S0 
G1 X0.1
M106 S255
G1 X1.1
M106 S0 
G1 X0.1
M106 S255
G1 X0.2
M106 S0 
G1 X0.1
M106 S255
G1 X0.2
M106 S0 
G1 X0.1
M106 S255
G1 X0.1
M106 S0 
G1 X0.1
M106 S255
G1 X0.1
M106 S0 
G1 X0.1
M106 S255
G1 X0.2
M106 S0 
G1 X0.1
M106 S255
G1 X0.1
M106 S0 
G1 X0.1
M106 S255
G1 X0.1
M106 S0 
G1 X0.1
M106 S255
G1 X0.1
M106 S0 
G1 X0.2
M106 S255
G1 X0.1
M106 S0 
G1 X0.1
M106 S255
G1 X0.1
M106 S0 
G1 X0.1
M106 S255
G1 X0.1
M106 S0 
G1 X0.1
M106 S255
G1 X0.1
M106 S0 
G1 X0.1
M106 S255
G1 X0.1
M106 S0 
G1 X0.2
M106 S255
G1 X0.2
M106 S0 
G1 X0.1
M106 S255
G1 X0.1
M106 S0 
G1 X0.2
M106 S255
G1 X0.2
M106 S0 
G1 X0.1
M106 S255
G1 X0.1
M106 S0 
G1 X0.2
M106 S255
G1 X0.1
M106 S0 
G1 X0.1
M106 S255
G1 X0.1
M106 S0 
G1 X0.1
M106 S255
G1 X0.1
M106 S0 
G1 X0.1
M106 S255
G1 X0.1
M106 S0 
G1 X0.3
M106 S255
G1 X0.1
M106 S0 
G1 X0.2
M106 S255
G1 X0.1
M106 S0 
G1 X0.4
M106 S255
G1 X0.1
M106 S0 
G1 X5
G1 X-0.8Y0.1
G1 X-5
M106 S255
G1 X-0.1
M106 S0 
G1 X-0.2
M106 S255
G1 X-0.1
M106 S0 
G1 X-0.1
M106 S255
G1 X-0.1
M106 S0 
G1 X-0.1
M106 S255
G1 X-0.1
M106 S0 
G1 X-0.1
M106 S255
G1 X-0.2
M106 S0 
G1 X-0.1
M106 S255
G1 X-0.2
M106 S0 
G1 X-0.2
M106 S255
G1 X-0.1
M106 S0 
G1 X-0.1
M106 S255
G1 X-0.1
M106 S0 
G1 X-0.2
M106 S255
G1 X-0.1
M106 S0 
G1 X-0.2
M106 S255
G1 X-0.1
M106 S0 
G1 X-0.1
M106 S255
G1 X-0.1
M106 S0 
G1 X-0.1
M106 S255
G1 X-0.1
M106 S0 
G1 X-0.1
M106 S255
G1 X-0.1
M106 S0 
G1 X-0.1
M106 S255
G1 X-0.1
M106 S0 
G1 X-0.1
M106 S255
G1 X-0.2
M106 S0 
G1 X-0.1
M106 S255
G1 X-0.1
M106 S0 
G1 X-0.1
M106 S255
G1 X-0.1
M106 S0 
G1 X-0.1
M106 S255
G1 X-0.1
M106 S0 
G1 X-0.2
M106 S255
G1 X-0.1
M106 S0 
G1 X-0.1
M106 S255
G1 X-0.1
M106 S0 
G1 X-0.1
M106 S255
G1 X-0.2
M106 S0 
G1 X-0.1
M106 S255
G1 X-1
M106 S0 
G1 X-0.1
M106 S255
G1 X-0.7
M106 S0 
G1 X-0.1
M106 S255
G1 X-0.2
M106 S0 
G1 X-0.1
M106 S255
G1 X-0.3
M106 S0 
G1 X-0.1
M106 S255
G1 X-0.3
M106 S0 
G1 X-0.1
M106 S255
G1 X-0.2
M106 S0 
G1 X-0.1
M106 S255
G1 X-0.3
M106 S0 
G1 X-0.1
M106 S255
G1 X-1
M106 S0 
G1 X-0.1
M106 S255
G1 X-0.1
M106 S0 
G1 X-0.1
M106 S255
G1 X-0.6
M106 S0 
G1 X-0.1
M106 S255
G1 X-0.3
M106 S0 
G1 X-0.1
M106 S255
G1 X-0.9
M106 S0 
G1 X-0.1
M106 S255
G1 X-2.1
M106 S0 
G1 X-0.1
M106 S255
G1 X-0.5
M106 S0 
G1 X-0.1
M106 S255
G1 X-0.5
M106 S0 
G1 X-0.1
M106 S255
G1 X-0.2
M106 S0 
G1 X-0.1
M106 S255
G1 X-1.2
M106 S0 
G1 X-0.1
M106 S255
G1 X-0.2
M106 S0 
G1 X-0.1
M106 S255
G1 X-0.2
M106 S0 
G1 X-0.1
M106 S255
G1 X-0.2
M106 S0 
G1 X-0.1
M106 S255
G1 X-0.1
M106 S0 
G1 X-0.1
M106 S255
G1 X-0.7
M106 S0 
G1 X-0.1
M106 S255
G1 X-0.3
M106 S0 
G1 X-0.1
M106 S255
G1 X-0.3
M106 S0 
G1 X-0.1
M106 S255
G1 X-0.6
M106 S0 
G1 X-0.1
M106 S255
G1 X-0.8
M106 S0 
G1 X-0.1
M106 S255
G1 X-1
M106 S0 
G1 X-0.1
M106 S255
G1 X-0.3
M106 S0 
G1 X-0.1
M106 S255
G1 X-0.2
M106 S0 
G1 X-0.1
M106 S255
G1 X-0.2
M106 S0 
G1 X-0.1
M106 S255
G1 X-0.2
M106 S0 
G1 X-0.1
M106 S255
G1 X-0.2
M106 S0 
G1 X-0.1
M106 S255
G1 X-0.4
M106 S0 
G1 X-0.1
M106 S255
G1 X-0.5
M106 S0 
G1 X-0.1
M106 S255
G1 X-0.2
M106 S0 
G1 X-0.1
M106 S255
G1 X-0.2
M106 S0 
G1 X-0.1
M106 S255
G1 X-0.5
M106 S0 
G1 X-0.1
M106 S255
G1 X-0.5
M106 S0 
G1 X-0.1
M106 S255
G1 X-0.2
M106 S0 
G1 X-0.1
M106 S255
G1 X-0.5
M106 S0 
G1 X-0.1
M106 S255
G1 X-0.5
M106 S0 
G1 X-0.1
M106 S255
G1 X-0.3
M106 S0 
G1 X-0.1
M106 S255
G1 X-0.3
M106 S0 
G1 X-0.1
M106 S255
G1 X-0.2
M106 S0 
G1 X-0.1
M106 S255
G1 X-0.2
M106 S0 
G1 X-0.1
M106 S255
G1 X-0.2
M106 S0 
G1 X-0.1
M106 S255
G1 X-0.7
M106 S0 
G1 X-0.1
M106 S255
G1 X-0.1
M106 S0 
G1 X-5
G1 X-0.3Y0.1
G1 X5
M106 S255
G1 X0.1
M106 S0 
G1 X0.1
M106 S255
G1 X0.3
M106 S0 
G1 X0.1
M106 S255
G1 X0.2
M106 S0 
G1 X0.1
M106 S255
G1 X0.5
M106 S0 
G1 X0.1
M106 S255
G1 X0.4
M106 S0 
G1 X0.1
M106 S255
G1 X0.3
M106 S0 
G1 X0.1
M106 S255
G1 X0.7
M106 S0 
G1 X0.1
M106 S255
G1 X0.2
M106 S0 
G1 X0.1
M106 S255
G1 X0.2
M106 S0 
G1 X0.1
M106 S255
G1 X0.2
M106 S0 
G1 X0.1
M106 S255
G1 X0.5
M106 S0 
G1 X0.1
M106 S255
G1 X0.1
M106 S0 
G1 X0.1
M106 S255
G1 X0.2
M106 S0 
G1 X0.1
M106 S255
G1 X0.2
M106 S0 
G1 X0.1
M106 S255
G1 X0.6
M106 S0 
G1 X0.1
M106 S255
G1 X0.1
M106 S0 
G1 X0.1
M106 S255
G1 X0.1
M106 S0 
G1 X0.1
M106 S255
G1 X0.4
M106 S0 
G1 X0.1
M106 S255
G1 X0.7
M106 S0 
G1 X0.1
M106 S255
G1 X0.5
M106 S0 
G1 X0.1
M106 S255
G1 X0.6
M106 S0 
G1 X0.1
M106 S255
G1 X0.2
M106 S0 
G1 X0.1
M106 S255
G1 X0.2
M106 S0 
G1 X0.1
M106 S255
G1 X0.4
M106 S0 
G1 X0.1
M106 S255
G1 X0.3
M106 S0 
G1 X0.1
M106 S255
G1 X0.5
M106 S0 
G1 X0.1
M106 S255
G1 X1.3
M106 S0 
G1 X0.1
M106 S255
G1 X0.2
M106 S0 
G1 X0.1
M106 S255
G1 X0.5
M106 S0 
G1 X0.1
M106 S255
G1 X0.2
M106 S0 
G1 X0.1
M106 S255
G1 X0.7
M106 S0 
G1 X0.1
M106 S255
G1 X0.2
M106 S0 
G1 X0.1
M106 S255
G1 X0.1
M106 S0 
G1 X0.1
M106 S255
G1 X0.1
M106 S0 
G1 X0.1
M106 S255
G1 X0.4
M106 S0 
G1 X0.1
M106 S255
G1 X0.2
M106 S0 
G1 X0.1
M106 S255
G1 X0.2
M106 S0 
G1 X0.1
M106 S255
G1 X0.2
M106 S0 
G1 X0.1
M106 S255
G1 X0.5
M106 S0 
G1 X0.1
M106 S255
G1 X0.1
M106 S0 
G1 X0.1
M106 S255
G1 X0.1
M106 S0 
G1 X0.1
M106 S255
G1 X0.2
M106 S0 
G1 X0.1
M106 S255
G1 X1.8
M106 S0 
G1 X0.1
M106 S255
G1 X0.5
M106 S0 
G1 X0.1
M106 S255
G1 X0.3
M106 S0 
G1 X0.1
M106 S255
G1 X0.8
M106 S0 
G1 X0.1
M106 S255
G1 X0.3
M106 S0 
G1 X0.1
M106 S255
G1 X0.2
M106 S0 
G1 X0.1
M106 S255
G1 X1.1
M106 S0 
G1 X0.1
M106 S255
G1 X1.1
M106 S0 
G1 X0.1
M106 S255
G1 X0.5
M106 S0 
G1 X0.1
M106 S255
G1 X0.2
M106 S0 
G1 X0.1
M106 S255
G1 X0.6
M106 S0 
G1 X0.1
M106 S255
G1 X0.1
M106 S0 
G1 X0.2
M106 S255
G1 X0.1
M106 S0 
G1 X0.1
M106 S255
G1 X0.2
M106 S0 
G1 X0.2
M106 S255
G1 X0.1
M106 S0 
G1 X0.2
M106 S255
G1 X0.1
M106 S0 
G1 X0.2
M106 S255
G1 X0.1
M106 S0 
G1 X0.1
M106 S255
G1 X0.1
M106 S0 
G1 X0.1
M106 S255
G1 X0.1
M106 S0 
G1 X0.2
M106 S255
G1 X0.1
